app/src/main/assets/BleachBypass3.cube
TITLE "Generated by RED"
LUT_3D_SIZE 33
0.000000 0.000000 0.000000
0.000049 0.000000 0.000000
0.000751 0.000000 0.000000
0.003922 0.000000 0.000000
0.020835 0.000000 0.000000
0.052747 0.000000 0.000000
0.097905 0.000000 0.000000
0.152828 0.000000 0.000000
0.213101 0.000000 0.000000
0.274109 0.000000 0.000000
0.331838 0.000000 0.000000
0.383621 0.000000 0.000000
0.428620 0.000000 0.000000
0.467903 0.000000 0.000000
0.504061 0.000000 0.000000
0.540422 0.000000 0.000000
0.580094 0.000000 0.000000
0.625073 0.000000 0.000000
0.675674 0.000000 0.000000
0.730428 0.000000 0.000000
0.786455 0.000000 0.000000
0.840177 0.000000 0.000000
0.888152 0.000000 0.000000
0.927804 0.000000 0.000000
0.957857 0.000000 0.000000
0.978436 0.000000 0.000000
0.990770 0.000000 0.000000
0.996806 0.000000 0.000000
0.999188 0.000000 0.000000
0.999876 0.000000 0.000000
0.999993 0.000000 0.000000
1.000000 0.000000 0.000000
1.000000 0.000000 0.000000
0.000000 0.000049 0.000000
0.000049 0.000049 0.000000
0.000751 0.000375 0.000000
0.003922 0.001280 0.000000
0.020835 0.004400 0.000000
0.052747 0.008761 0.000000
0.097905 0.013959 0.000000
0.152828 0.019719 0.000000
0.213101 0.025821 0.000000
0.274109 0.032077 0.000000
0.331838 0.038313 0.000000
0.383621 0.044372 0.000000
0.428620 0.050109 0.000000
0.467903 0.055400 0.000000
0.504061 0.060140 0.000000
0.540422 0.064245 0.000000
0.580094 0.067657 0.000000
0.625073 0.070341 0.000000
0.675674 0.072287 0.000000
0.730428 0.073509 0.000000
0.786455 0.074045 0.000000
0.840177 0.073951 0.000000
0.888152 0.073301 0.000000
0.927804 0.072185 0.000000
0.957857 0.070701 0.000000
0.978436 0.068951 0.000000
0.990770 0.067050 0.000000
0.996806 0.065186 0.000000
0.999188 0.063464 0.000000
0.999876 0.061959 0.000000
0.999993 0.060744 0.000000
1.000000 0.059917 0.000000
1.000000 0.059631 0.000000
0.000000 0.000751 0.000000
0.000375 0.000751 0.000000
0.000751 0.000751 0.000000
0.003922 0.002558 0.000000
0.020835 0.008771 0.000000
0.052747 0.017407 0.000000
0.097905 0.027625 0.000000
0.152828 0.038849 0.000000
0.213101 0.050630 0.000000
0.274109 0.062586 0.000000
0.331838 0.074382 0.000000
0.383621 0.085724 0.000000
0.428620 0.096357 0.000000
0.467903 0.106069 0.000000
0.504061 0.114691 0.000000
0.540422 0.122100 0.000000
0.580094 0.128216 0.000000
0.625073 0.132999 0.000000
0.675674 0.136452 0.000000
0.730428 0.138615 0.000000
0.786455 0.139561 0.000000
0.840177 0.139395 0.000000
0.888152 0.138247 0.000000
0.927804 0.136272 0.000000
0.957857 0.133639 0.000000
0.978436 0.130524 0.000000
0.990770 0.127130 0.000000
0.996806 0.123790 0.000000
0.999188 0.120695 0.000000
0.999876 0.117981 0.000000
0.999993 0.115784 0.000000
1.000000 0.114288 0.000000
1.000000 0.113770 0.000000
0.000000 0.003922 0.000000
0.001280 0.003922 0.000000
0.002558 0.003922 0.000000
0.003922 0.003922 0.000000
0.020835 0.013410 0.000000
0.052747 0.026520 0.000000
0.097905 0.041909 0.000000
0.152828 0.058657 0.000000
0.213101 0.076056 0.000000
0.274109 0.093520 0.000000
0.331838 0.110556 0.000000
0.383621 0.126749 0.000000
0.428620 0.141759 0.000000
0.467903 0.155321 0.000000
0.504061 0.167243 0.000000
0.540422 0.177395 0.000000
0.580094 0.185709 0.000000
0.625073 0.192172 0.000000
0.675674 0.196815 0.000000
0.730428 0.199713 0.000000
0.786455 0.200979 0.000000
0.840177 0.200756 0.000000
0.888152 0.199221 0.000000
0.927804 0.196574 0.000000
0.957857 0.193034 0.000000
0.978436 0.188833 0.000000
0.990770 0.184237 0.000000
0.996806 0.179698 0.000000
0.999188 0.175476 0.000000
0.999876 0.171761 0.000000
0.999993 0.168745 0.000000
1.000000 0.166688 0.000000
1.000000 0.165974 0.000000
0.000000 0.020835 0.000000
0.004400 0.020835 0.000000
0.008771 0.020835 0.000000
0.013410 0.020835 0.000000
0.020835 0.020835 0.000000
0.052747 0.040968 0.000000
0.097905 0.064296 0.000000
0.152828 0.089299 0.000000
0.213101 0.114834 0.000000
0.274109 0.140000 0.000000
0.331838 0.164083 0.000000
0.383621 0.186534 0.000000
0.428620 0.206952 0.000000
0.467903 0.225067 0.000000
0.504061 0.240722 0.000000
0.540422 0.253851 0.000000
0.580094 0.264465 0.000000
0.625073 0.272626 0.000000
0.675674 0.278442 0.000000
0.730428 0.282052 0.000000
0.786455 0.283623 0.000000
0.840177 0.283347 0.000000
0.888152 0.281440 0.000000
0.927804 0.278140 0.000000
0.957857 0.273709 0.000000
0.978436 0.268419 0.000000
0.990770 0.262595 0.000000
0.996806 0.256804 0.000000
0.999188 0.251384 0.000000
0.999876 0.246588 0.000000
0.999993 0.242677 0.000000
1.000000 0.239998 0.000000
1.000000 0.239067 0.000000
0.000000 0.052747 0.000000
0.008761 0.052747 0.000000
0.017407 0.052747 0.000000
0.026520 0.052747 0.000000
0.040968 0.052747 0.000000
0.052747 0.052747 0.000000
0.097905 0.082308 0.000000
0.152828 0.113581 0.000000
0.213101 0.145057 0.000000
0.274109 0.175592 0.000000
0.331838 0.204334 0.000000
0.383621 0.230682 0.000000
0.428620 0.254252 0.000000
0.467903 0.274837 0.000000
0.504061 0.292371 0.000000
0.540422 0.306890 0.000000
0.580094 0.318500 0.000000
0.625073 0.327351 0.000000
0.675674 0.333617 0.000000
0.730428 0.337489 0.000000
0.786455 0.339170 0.000000
0.840177 0.338875 0.000000
0.888152 0.336833 0.000000
0.927804 0.333293 0.000000
0.957857 0.328520 0.000000
0.978436 0.322797 0.000000
0.990770 0.316463 0.000000
0.996806 0.310131 0.000000
0.999188 0.304174 0.000000
0.999876 0.298880 0.000000
0.999993 0.294544 0.000000
1.000000 0.291566 0.000000
1.000000 0.290529 0.000000
0.000000 0.097905 0.000000
0.013959 0.097905 0.000000
0.027625 0.097905 0.000000
0.041909 0.097905 0.000000
0.064296 0.097905 0.000000
0.082308 0.097905 0.000000
0.097905 0.097905 0.000000
0.152828 0.134331 0.000000
0.213101 0.170506 0.000000
0.274109 0.205097 0.000000
0.331838 0.237169 0.000000
0.383621 0.266123 0.000000
0.428620 0.291641 0.000000
0.467903 0.313619 0.000000
0.504061 0.332107 0.000000
0.540422 0.347255 0.000000
0.580094 0.359264 0.000000
0.625073 0.368359 0.000000
0.675674 0.374767 0.000000
0.730428 0.378716 0.000000
0.786455 0.380427 0.000000
0.840177 0.380127 0.000000
0.888152 0.378048 0.000000
0.927804 0.374436 0.000000
0.957857 0.369556 0.000000
0.978436 0.363686 0.000000
0.990770 0.357163 0.000000
0.996806 0.350617 0.000000
0.999188 0.344433 0.000000
0.999876 0.338916 0.000000
0.999993 0.334383 0.000000
1.000000 0.331263 0.000000
1.000000 0.330175 0.000000
0.000000 0.152828 0.000000
0.019719 0.152828 0.000000
0.038849 0.152828 0.000000
0.058657 0.152828 0.000000
0.089299 0.152828 0.000000
0.113581 0.152828 0.000000
0.134331 0.152828 0.000000
0.152828 0.152828 0.000000
0.213101 0.192887 0.000000
0.274109 0.230672 0.000000
0.331838 0.265208 0.000000
0.383621 0.295947 0.000000
0.428620 0.322671 0.000000
0.467903 0.345407 0.000000
0.504061 0.364336 0.000000
0.540422 0.379718 0.000000
0.580094 0.391841 0.000000
0.625073 0.400987 0.000000
0.675674 0.407418 0.000000
0.730428 0.411374 0.000000
0.786455 0.413089 0.000000
0.840177 0.412788 0.000000
0.888152 0.410705 0.000000
0.927804 0.407086 0.000000
0.957857 0.402190 0.000000
0.978436 0.396292 0.000000
0.990770 0.389725 0.000000
0.996806 0.383118 0.000000
0.999188 0.376860 0.000000
0.999876 0.371263 0.000000
0.999993 0.366654 0.000000
1.000000 0.363476 0.000000
1.000000 0.362366 0.000000
0.000000 0.213101 0.000000
0.025821 0.213101 0.000000
0.050630 0.213101 0.000000
0.076056 0.213101 0.000000
0.114834 0.213101 0.000000
0.145057 0.213101 0.000000
0.170506 0.213101 0.000000
0.192887 0.213101 0.000000
0.213101 0.213101 0.000000
0.274109 0.253453 0.000000
0.331838 0.289837 0.000000
0.383621 0.321789 0.000000
0.428620 0.349230 0.000000
0.467903 0.372334 0.000000
0.504061 0.391419 0.000000
0.540422 0.406851 0.000000
0.580094 0.418986 0.000000
0.625073 0.428137 0.000000
0.675674 0.434577 0.000000
0.730428 0.438545 0.000000
0.786455 0.440265 0.000000
0.840177 0.439963 0.000000
0.888152 0.437873 0.000000
0.927804 0.434244 0.000000
0.957857 0.429341 0.000000
0.978436 0.423438 0.000000
0.990770 0.416868 0.000000
0.996806 0.410256 0.000000
0.999188 0.403989 0.000000
0.999876 0.398376 0.000000
0.999993 0.393749 0.000000
1.000000 0.390555 0.000000
1.000000 0.389439 0.000000
0.000000 0.274109 0.000000
0.032077 0.274109 0.000000
0.062586 0.274109 0.000000
0.093520 0.274109 0.000000
0.140000 0.274109 0.000000
0.175592 0.274109 0.000000
0.205097 0.274109 0.000000
0.230672 0.274109 0.000000
0.253453 0.274109 0.000000
0.274109 0.274109 0.000000
0.331838 0.311872 0.000000
0.383621 0.344625 0.000000
0.428620 0.372452 0.000000
0.467903 0.395694 0.000000
0.504061 0.414806 0.000000
0.540422 0.430247 0.000000
0.580094 0.442415 0.000000
0.625073 0.451631 0.000000
0.675674 0.458147 0.000000
0.730428 0.462179 0.000000
0.786455 0.463932 0.000000
0.840177 0.463624 0.000000
0.888152 0.461496 0.000000
0.927804 0.457810 0.000000
0.957857 0.452846 0.000000
0.978436 0.446893 0.000000
0.990770 0.440288 0.000000
0.996806 0.433657 0.000000
0.999188 0.427381 0.000000
0.999876 0.421765 0.000000
0.999993 0.417137 0.000000
1.000000 0.413941 0.000000
1.000000 0.412825 0.000000
0.000000 0.331838 0.000000
0.038313 0.331838 0.000000
0.074382 0.331838 0.000000
0.110556 0.331838 0.000000
0.164083 0.331838 0.000000
0.204334 0.331838 0.000000
0.237169 0.331838 0.000000
0.265208 0.331838 0.000000
0.289837 0.331838 0.000000
0.311872 0.331838 0.000000
0.331838 0.331838 0.000000
0.383621 0.365088 0.000000
0.428620 0.393087 0.000000
0.467903 0.416356 0.000000
0.504061 0.435485 0.000000
0.540422 0.451006 0.000000
0.580094 0.463333 0.000000
0.625073 0.472757 0.000000
0.675674 0.479484 0.000000
0.730428 0.483675 0.000000
0.786455 0.485506 0.000000
0.840177 0.485184 0.000000
0.888152 0.482963 0.000000
0.927804 0.479134 0.000000
0.957857 0.474008 0.000000
0.978436 0.467901 0.000000
0.990770 0.461169 0.000000
0.996806 0.454449 0.000000
0.999188 0.448117 0.000000
0.999876 0.442468 0.000000
0.999993 0.437822 0.000000
1.000000 0.434618 0.000000
1.000000 0.433499 0.000000
0.000000 0.383621 0.000000
0.044372 0.383621 0.000000
0.085724 0.383621 0.000000
0.126749 0.383621 0.000000
0.186534 0.383621 0.000000
0.230682 0.383621 0.000000
0.266123 0.383621 0.000000
0.295947 0.383621 0.000000
0.321789 0.383621 0.000000
0.344625 0.383621 0.000000
0.365088 0.383621 0.000000
0.383621 0.383621 0.000000
0.428620 0.411672 0.000000
0.467903 0.434957 0.000000
0.504061 0.454193 0.000000
0.540422 0.469965 0.000000
0.580094 0.482666 0.000000
0.625073 0.492522 0.000000
0.675674 0.499649 0.000000
0.730428 0.504135 0.000000
0.786455 0.506105 0.000000
0.840177 0.505758 0.000000
0.888152 0.503370 0.000000
0.927804 0.499277 0.000000
0.957857 0.493841 0.000000
0.978436 0.487426 0.000000
0.990770 0.480423 0.000000
0.996806 0.473494 0.000000
0.999188 0.467013 0.000000
0.999876 0.461265 0.000000
0.999993 0.456556 0.000000
1.000000 0.453318 0.000000
1.000000 0.452189 0.000000
0.000000 0.428620 0.000000
0.050109 0.428620 0.000000
0.096357 0.428620 0.000000
0.141759 0.428620 0.000000
0.206952 0.428620 0.000000
0.254252 0.428620 0.000000
0.291641 0.428620 0.000000
0.322671 0.428620 0.000000
0.349230 0.428620 0.000000
0.372452 0.428620 0.000000
0.393087 0.428620 0.000000
0.411672 0.428620 0.000000
0.428620 0.428620 0.000000
0.467903 0.451998 0.000000
0.504061 0.471527 0.000000
0.540422 0.487811 0.000000
0.580094 0.501188 0.000000
0.625073 0.511769 0.000000
0.675674 0.519545 0.000000
0.730428 0.524496 0.000000
0.786455 0.526686 0.000000
0.840177 0.526299 0.000000
0.888152 0.523649 0.000000
0.927804 0.519136 0.000000
0.957857 0.513199 0.000000
0.978436 0.506274 0.000000
0.990770 0.498806 0.000000
0.996806 0.491502 0.000000
0.999188 0.484739 0.000000
0.999876 0.478790 0.000000
0.999993 0.473947 0.000000
1.000000 0.470631 0.000000
1.000000 0.469477 0.000000
0.000000 0.467903 0.000000
0.055400 0.467903 0.000000
0.106069 0.467903 0.000000
0.155321 0.467903 0.000000
0.225067 0.467903 0.000000
0.274837 0.467903 0.000000
0.313619 0.467903 0.000000
0.345407 0.467903 0.000000
0.372334 0.467903 0.000000
0.395694 0.467903 0.000000
0.416356 0.467903 0.000000
0.434957 0.467903 0.000000
0.451998 0.467903 0.000000
0.467903 0.467903 0.000000
0.504061 0.487996 0.000000
0.540422 0.505144 0.000000
0.580094 0.519579 0.000000
0.625073 0.531250 0.000000
0.675674 0.539978 0.000000
0.730428 0.545603 0.000000
0.786455 0.548106 0.000000
0.840177 0.547664 0.000000
0.888152 0.544637 0.000000
0.927804 0.539516 0.000000
0.957857 0.532847 0.000000
0.978436 0.525160 0.000000
0.990770 0.516983 0.000000
0.996806 0.509093 0.000000
0.999188 0.501876 0.000000
0.999876 0.495593 0.000000
0.999993 0.490519 0.000000
1.000000 0.487065 0.000000
1.000000 0.485866 0.000000
0.000000 0.504061 0.000000
0.060140 0.504061 0.000000
0.114691 0.504061 0.000000
0.167243 0.504061 0.000000
0.240722 0.504061 0.000000
0.292371 0.504061 0.000000
0.332107 0.504061 0.000000
0.364336 0.504061 0.000000
0.391419 0.504061 0.000000
0.414806 0.504061 0.000000
0.435485 0.504061 0.000000
0.454193 0.504061 0.000000
0.471527 0.504061 0.000000
0.487996 0.504061 0.000000
0.504061 0.504061 0.000000
0.540422 0.522510 0.000000
0.580094 0.538466 0.000000
0.625073 0.551665 0.000000
0.675674 0.561703 0.000000
0.730428 0.568244 0.000000
0.786455 0.571173 0.000000
0.840177 0.570655 0.000000
0.888152 0.567117 0.000000
0.927804 0.561167 0.000000
0.957857 0.553490 0.000000
0.978436 0.544745 0.000000
0.990770 0.535567 0.000000
0.996806 0.526835 0.000000
0.999188 0.518953 0.000000
0.999876 0.512169 0.000000
0.999993 0.506743 0.000000
1.000000 0.503073 0.000000
1.000000 0.501805 0.000000
0.000000 0.540422 0.000000
0.064245 0.540422 0.000000
0.122100 0.540422 0.000000
0.177395 0.540422 0.000000
0.253851 0.540422 0.000000
0.306890 0.540422 0.000000
0.347255 0.540422 0.000000
0.379718 0.540422 0.000000
0.406851 0.540422 0.000000
0.430247 0.540422 0.000000
0.451006 0.540422 0.000000
0.469965 0.540422 0.000000
0.487811 0.540422 0.000000
0.505144 0.540422 0.000000
0.522510 0.540422 0.000000
0.540422 0.540422 0.000000
0.580094 0.558446 0.000000
0.625073 0.573678 0.000000
0.675674 0.585438 0.000000
0.730428 0.593177 0.000000
0.786455 0.596659 0.000000
0.840177 0.596042 0.000000
0.888152 0.591839 0.000000
0.927804 0.584807 0.000000
0.957857 0.575805 0.000000
0.978436 0.565657 0.000000
0.990770 0.555138 0.000000
0.996806 0.545263 0.000000
0.999188 0.536465 0.000000
0.999876 0.528983 0.000000
0.999993 0.523058 0.000000
1.000000 0.519081 0.000000
1.000000 0.517711 0.000000
0.000000 0.580094 0.000000
0.067657 0.580094 0.000000
0.128216 0.580094 0.000000
0.185709 0.580094 0.000000
0.264465 0.580094 0.000000
0.318500 0.580094 0.000000
0.359264 0.580094 0.000000
0.391841 0.580094 0.000000
0.418986 0.580094 0.000000
0.442415 0.580094 0.000000
0.463333 0.580094 0.000000
0.482666 0.580094 0.000000
0.501188 0.580094 0.000000
0.519579 0.580094 0.000000
0.538466 0.580094 0.000000
0.558446 0.580094 0.000000
0.580094 0.580094 0.000000
0.625073 0.597935 0.000000
0.675674 0.611886 0.000000
0.730428 0.621138 0.000000
0.786455 0.625317 0.000000
0.840177 0.624576 0.000000
0.888152 0.619534 0.000000
0.927804 0.611135 0.000000
0.957857 0.600449 0.000000
0.978436 0.588506 0.000000
0.990770 0.576257 0.000000
0.996806 0.564894 0.000000
0.999188 0.554892 0.000000
0.999876 0.546481 0.000000
0.999993 0.539886 0.000000
1.000000 0.535491 0.000000
1.000000 0.533985 0.000000
0.000000 0.625073 0.000000
0.070341 0.625073 0.000000
0.132999 0.625073 0.000000
0.192172 0.625073 0.000000
0.272626 0.625073 0.000000
0.327351 0.625073 0.000000
0.368359 0.625073 0.000000
0.400987 0.625073 0.000000
0.428137 0.625073 0.000000
0.451631 0.625073 0.000000
0.472757 0.625073 0.000000
0.492522 0.625073 0.000000
0.511769 0.625073 0.000000
0.531250 0.625073 0.000000
0.551665 0.625073 0.000000
0.573678 0.625073 0.000000
0.597935 0.625073 0.000000
0.625073 0.625073 0.000000
0.675674 0.641737 0.000000
0.730428 0.652854 0.000000
0.786455 0.657891 0.000000
0.840177 0.656997 0.000000
0.888152 0.650924 0.000000
0.927804 0.640836 0.000000
0.957857 0.628065 0.000000
0.978436 0.613888 0.000000
0.990770 0.599472 0.000000
0.996806 0.586231 0.000000
0.999188 0.574697 0.000000
0.999876 0.565096 0.000000
0.999993 0.557634 0.000000
1.000000 0.552697 0.000000
1.000000 0.551012 0.000000
0.000000 0.675674 0.000000
0.072287 0.675674 0.000000
0.136452 0.675674 0.000000
0.196815 0.675674 0.000000
0.278442 0.675674 0.000000
0.333617 0.675674 0.000000
0.374767 0.675674 0.000000
0.407418 0.675674 0.000000
0.434577 0.675674 0.000000
0.458147 0.675674 0.000000
0.479484 0.675674 0.000000
0.499649 0.675674 0.000000
0.519545 0.675674 0.000000
0.539978 0.675674 0.000000
0.561703 0.675674 0.000000
0.585438 0.675674 0.000000
0.611886 0.675674 0.000000
0.641737 0.675674 0.000000
0.675674 0.675674 0.000000
0.730428 0.689045 0.000000
0.786455 0.695118 0.000000
0.840177 0.694039 0.000000
0.888152 0.686721 0.000000
0.927804 0.674592 0.000000
0.957857 0.659292 0.000000
0.978436 0.642394 0.000000
0.990770 0.625326 0.000000
0.996806 0.609772 0.000000
0.999188 0.596338 0.000000
0.999876 0.585252 0.000000
0.999993 0.576704 0.000000
1.000000 0.571083 0.000000
1.000000 0.569171 0.000000
0.000000 0.730428 0.000000
0.073509 0.730428 0.000000
0.138615 0.730428 0.000000
0.199713 0.730428 0.000000
0.282052 0.730428 0.000000
0.337489 0.730428 0.000000
0.378716 0.730428 0.000000
0.411374 0.730428 0.000000
0.438545 0.730428 0.000000
0.462179 0.730428 0.000000
0.483675 0.730428 0.000000
0.504135 0.730428 0.000000
0.524496 0.730428 0.000000
0.545603 0.730428 0.000000
0.568244 0.730428 0.000000
0.593177 0.730428 0.000000
0.621138 0.730428 0.000000
0.652854 0.730428 0.000000
0.689045 0.730428 0.000000
0.730428 0.730428 0.000000
0.786455 0.737729 0.000000
0.840177 0.736431 0.000000
0.888152 0.727635 0.000000
0.927804 0.713079 0.000000
0.957857 0.694764 0.000000
0.978436 0.674611 0.000000
0.990770 0.654356 0.000000
0.996806 0.636009 0.000000
0.999188 0.620270 0.000000
0.999876 0.607372 0.000000
0.999993 0.597492 0.000000
1.000000 0.591029 0.000000
1.000000 0.588837 0.000000
0.000000 0.786455 0.000000
0.074045 0.786455 0.000000
0.139561 0.786455 0.000000
0.200979 0.786455 0.000000
0.283623 0.786455 0.000000
0.339170 0.786455 0.000000
0.380427 0.786455 0.000000
0.413089 0.786455 0.000000
0.440265 0.786455 0.000000
0.463932 0.786455 0.000000
0.485506 0.786455 0.000000
0.506105 0.786455 0.000000
0.526686 0.786455 0.000000
0.548106 0.786455 0.000000
0.571173 0.786455 0.000000
0.596659 0.786455 0.000000
0.625317 0.786455 0.000000
0.657891 0.786455 0.000000
0.695118 0.786455 0.000000
0.737729 0.786455 0.000000
0.786455 0.786455 0.000000
0.840177 0.784902 0.000000
0.888152 0.774374 0.000000
0.927804 0.756971 0.000000
0.957857 0.735111 0.000000
0.978436 0.711121 0.000000
0.990770 0.687095 0.000000
0.996806 0.665431 0.000000
0.999188 0.646942 0.000000
0.999876 0.631873 0.000000
0.999993 0.620390 0.000000
1.000000 0.612912 0.000000
1.000000 0.610381 0.000000
0.000000 0.840177 0.000000
0.073951 0.840177 0.000000
0.139395 0.840177 0.000000
0.200756 0.840177 0.000000
0.283347 0.840177 0.000000
0.338875 0.840177 0.000000
0.380127 0.840177 0.000000
0.412788 0.840177 0.000000
0.439963 0.840177 0.000000
0.463624 0.840177 0.000000
0.485184 0.840177 0.000000
0.505758 0.840177 0.000000
0.526299 0.840177 0.000000
0.547664 0.840177 0.000000
0.570655 0.840177 0.000000
0.596042 0.840177 0.000000
0.624576 0.840177 0.000000
0.656997 0.840177 0.000000
0.694039 0.840177 0.000000
0.736431 0.840177 0.000000
0.784902 0.840177 0.000000
0.840177 0.840177 0.000000
0.888152 0.827645 0.000000
0.927804 0.806941 0.000000
0.957857 0.780966 0.000000
0.978436 0.752508 0.000000
0.990770 0.724078 0.000000
0.996806 0.698527 0.000000
0.999188 0.676804 0.000000
0.999876 0.659172 0.000000
0.999993 0.645791 0.000000
1.000000 0.637106 0.000000
1.000000 0.634174 0.000000
0.000000 0.888152 0.000000
0.073301 0.888152 0.000000
0.138247 0.888152 0.000000
0.199221 0.888152 0.000000
0.281440 0.888152 0.000000
0.336833 0.888152 0.000000
0.378048 0.888152 0.000000
0.410705 0.888152 0.000000
0.437873 0.888152 0.000000
0.461496 0.888152 0.000000
0.482963 0.888152 0.000000
0.503370 0.888152 0.000000
0.523649 0.888152 0.000000
0.544637 0.888152 0.000000
0.567117 0.888152 0.000000
0.591839 0.888152 0.000000
0.619534 0.888152 0.000000
0.650924 0.888152 0.000000
0.686721 0.888152 0.000000
0.727635 0.888152 0.000000
0.774374 0.888152 0.000000
0.827645 0.888152 0.000000
0.888152 0.888152 0.000000
0.927804 0.863661 0.000000
0.957857 0.832955 0.000000
0.978436 0.799351 0.000000
0.990770 0.765837 0.000000
0.996806 0.735783 0.000000
0.999188 0.710302 0.000000
0.999876 0.689683 0.000000
0.999993 0.674084 0.000000
1.000000 0.663987 0.000000
1.000000 0.660582 0.000000
0.000000 0.927804 0.000000
0.072185 0.927804 0.000000
0.136272 0.927804 0.000000
0.196574 0.927804 0.000000
0.278140 0.927804 0.000000
0.333293 0.927804 0.000000
0.374436 0.927804 0.000000
0.407086 0.927804 0.000000
0.434244 0.927804 0.000000
0.457810 0.927804 0.000000
0.479134 0.927804 0.000000
0.499277 0.927804 0.000000
0.519136 0.927804 0.000000
0.539516 0.927804 0.000000
0.561167 0.927804 0.000000
0.584807 0.927804 0.000000
0.611135 0.927804 0.000000
0.640836 0.927804 0.000000
0.674592 0.927804 0.000000
0.713079 0.927804 0.000000
0.756971 0.927804 0.000000
0.806941 0.927804 0.000000
0.863661 0.927804 0.000000
0.927804 0.927804 0.000000
0.957857 0.891710 0.000000
0.978436 0.852234 0.000000
0.990770 0.812904 0.000000
0.996806 0.777686 0.000000
0.999188 0.747885 0.000000
0.999876 0.723823 0.000000
0.999993 0.705659 0.000000
1.000000 0.693926 0.000000
1.000000 0.689974 0.000000
0.000000 0.957857 0.000000
0.070701 0.957857 0.000000
0.133639 0.957857 0.000000
0.193034 0.957857 0.000000
0.273709 0.957857 0.000000
0.328520 0.957857 0.000000
0.369556 0.957857 0.000000
0.402190 0.957857 0.000000
0.429341 0.957857 0.000000
0.452846 0.957857 0.000000
0.474008 0.957857 0.000000
0.493841 0.957857 0.000000
0.513199 0.957857 0.000000
0.532847 0.957857 0.000000
0.553490 0.957857 0.000000
0.575805 0.957857 0.000000
0.600449 0.957857 0.000000
0.628065 0.957857 0.000000
0.659292 0.957857 0.000000
0.694764 0.957857 0.000000
0.735111 0.957857 0.000000
0.780966 0.957857 0.000000
0.832955 0.957857 0.000000
0.891710 0.957857 0.000000
0.957857 0.957857 0.000000
0.978436 0.911735 0.000000
0.990770 0.865809 0.000000
0.996806 0.824722 0.000000
0.999188 0.789998 0.000000
0.999876 0.762004 0.000000
0.999993 0.740906 0.000000
1.000000 0.727297 0.000000
1.000000 0.722718 0.000000
0.000000 0.978436 0.000000
0.068951 0.978436 0.000000
0.130524 0.978436 0.000000
0.188833 0.978436 0.000000
0.268419 0.978436 0.000000
0.322797 0.978436 0.000000
0.363686 0.978436 0.000000
0.396292 0.978436 0.000000
0.423438 0.978436 0.000000
0.446893 0.978436 0.000000
0.467901 0.978436 0.000000
0.487426 0.978436 0.000000
0.506274 0.978436 0.000000
0.525160 0.978436 0.000000
0.544745 0.978436 0.000000
0.565657 0.978436 0.000000
0.588506 0.978436 0.000000
0.613888 0.978436 0.000000
0.642394 0.978436 0.000000
0.674611 0.978436 0.000000
0.711121 0.978436 0.000000
0.752508 0.978436 0.000000
0.799351 0.978436 0.000000
0.852234 0.978436 0.000000
0.911735 0.978436 0.000000
0.978436 0.978436 0.000000
0.990770 0.925085 0.000000
0.996806 0.877378 0.000000
0.999188 0.837089 0.000000
0.999876 0.804641 0.000000
0.999993 0.780214 0.000000
1.000000 0.764473 0.000000
1.000000 0.759180 0.000000
0.000000 0.990770 0.000000
0.067050 0.990770 0.000000
0.127130 0.990770 0.000000
0.184237 0.990770 0.000000
0.262595 0.990770 0.000000
0.316463 0.990770 0.000000
0.357163 0.990770 0.000000
0.389725 0.990770 0.000000
0.416868 0.990770 0.000000
0.440288 0.990770 0.000000
0.461169 0.990770 0.000000
0.480423 0.990770 0.000000
0.498806 0.990770 0.000000
0.516983 0.990770 0.000000
0.535567 0.990770 0.000000
0.555138 0.990770 0.000000
0.576257 0.990770 0.000000
0.599472 0.990770 0.000000
0.625326 0.990770 0.000000
0.654356 0.990770 0.000000
0.687095 0.990770 0.000000
0.724078 0.990770 0.000000
0.765837 0.990770 0.000000
0.812904 0.990770 0.000000
0.865809 0.990770 0.000000
0.925085 0.990770 0.000000
0.990770 0.990770 0.000000
0.996806 0.935702 0.000000
0.999188 0.889214 0.000000
