app/src/main/assets/BleachBypass3.cube
TITLE "Generated by RED"
LUT_3D_SIZE 9
0.000000 0.000000 0.000000
0.020835 0.000000 0.000000
0.213101 0.000000 0.000000
0.428620 0.000000 0.000000
0.580094 0.000000 0.000000
0.786455 0.000000 0.000000
0.957857 0.000000 0.000000
0.999188 0.000000 0.000000
1.000000 0.000000 0.000000
0.000000 0.020835 0.000000
0.020835 0.020835 0.000000
0.213101 0.114834 0.000000
0.428620 0.206952 0.000000
0.580094 0.264465 0.000000
0.786455 0.283623 0.000000
0.957857 0.273709 0.000000
0.999188 0.251384 0.000000
1.000000 0.239067 0.000000
0.000000 0.213101 0.000000
0.114834 0.213101 0.000000
0.213101 0.213101 0.000000
0.428620 0.349230 0.000000
0.580094 0.418986 0.000000
0.786455 0.440265 0.000000
0.957857 0.429341 0.000000
0.999188 0.403989 0.000000
1.000000 0.389439 0.000000
0.000000 0.428620 0.000000
0.206952 0.428620 0.000000
0.349230 0.428620 0.000000
0.428620 0.428620 0.000000
0.580094 0.501188 0.000000
0.786455 0.526686 0.000000
0.957857 0.513199 0.000000
0.999188 0.484739 0.000000
1.000000 0.469477 0.000000
0.000000 0.580094 0.000000
0.264465 0.580094 0.000000
0.418986 0.580094 0.000000
0.501188 0.580094 0.000000
0.580094 0.580094 0.000000
0.786455 0.625317 0.000000
0.957857 0.600449 0.000000
0.999188 0.554892 0.000000
1.000000 0.533985 0.000000
0.000000 0.786455 0.000000
0.283623 0.786455 0.000000
0.440265 0.786455 0.000000
0.526686 0.786455 0.000000
0.625317 0.786455 0.000000
0.786455 0.786455 0.000000
0.957857 0.735111 0.000000
0.999188 0.646942 0.000000
1.000000 0.610381 0.000000
0.000000 0.957857 0.000000
0.273709 0.957857 0.000000
0.429341 0.957857 0.000000
0.513199 0.957857 0.000000
0.600449 0.957857 0.000000
0.735111 0.957857 0.000000
0.957857 0.957857 0.000000
0.999188 0.789998 0.000000
1.000000 0.722718 0.000000
0.000000 0.999188 0.000000
0.251384 0.999188 0.000000
0.403989 0.999188 0.000000
0.484739 0.999188 0.000000
0.554892 0.999188 0.000000
0.646942 0.999188 0.000000
0.789998 0.999188 0.000000
0.999188 0.999188 0.000000
1.000000 0.884149 0.000000
0.000000 1.000000 0.000000
0.239067 1.000000 0.000000
0.389439 1.000000 0.000000
0.469477 1.000000 0.000000
0.533985 1.000000 0.000000
0.610381 1.000000 0.000000
0.722718 1.000000 0.000000
0.884149 1.000000 0.000000
1.000000 1.000000 0.000000
0.000000 0.000000 0.020835
0.020835 0.000000 0.020835
0.213101 0.000000 0.114834
0.428620 0.000000 0.206952
0.580094 0.000000 0.264465
0.786455 0.000000 0.283623
0.957857 0.000000 0.273709
0.999188 0.000000 0.251384
1.000000 0.000000 0.239067
0.000000 0.020835 0.020835
0.020835 0.020835 0.020835
0.213101 0.114834 0.114834
0.428620 0.206952 0.206952
0.580094 0.264465 0.264465
0.786455 0.283623 0.283623
0.957857 0.273709 0.273709
0.999188 0.251384 0.251384
1.000000 0.239067 0.239067
0.000000 0.213101 0.114834
0.114834 0.213101 0.114834
0.213101 0.213101 0.114834
0.428620 0.349230 0.206952
0.580094 0.418986 0.264465
0.786455 0.440265 0.283623
0.957857 0.429341 0.273709
0.999188 0.403989 0.251384
1.000000 0.389439 0.239067
0.000000 0.428620 0.206952
0.206952 0.428620 0.206952
0.349230 0.428620 0.206952
0.428620 0.428620 0.206952
0.580094 0.501188 0.264465
0.786455 0.526686 0.283623
0.957857 0.513199 0.273709
0.999188 0.484739 0.251384
1.000000 0.469477 0.239067
0.000000 0.580094 0.264465
0.264465 0.580094 0.264465
0.418986 0.580094 0.264465
0.501188 0.580094 0.264465
0.580094 0.580094 0.264465
0.786455 0.625317 0.283623
0.957857 0.600449 0.273709
0.999188 0.554892 0.251384
1.000000 0.533985 0.239067
0.000000 0.786455 0.283623
0.283623 0.786455 0.283623
0.440265 0.786455 0.283623
0.526686 0.786455 0.283623
0.625317 0.786455 0.283623
0.786455 0.786455 0.283623
0.957857 0.735111 0.273709
0.999188 0.646942 0.251384
1.000000 0.610381 0.239067
0.000000 0.957857 0.273709
0.273709 0.957857 0.273709
0.429341 0.957857 0.273709
0.513199 0.957857 0.273709
0.600449 0.957857 0.273709
0.735111 0.957857 0.273709
0.957857 0.957857 0.273709
0.999188 0.789998 0.251384
1.000000 0.722718 0.239067
0.000000 0.999188 0.251384
0.251384 0.999188 0.251384
0.403989 0.999188 0.251384
0.484739 0.999188 0.251384
0.554892 0.999188 0.251384
0.646942 0.999188 0.251384
0.789998 0.999188 0.251384
0.999188 0.999188 0.251384
1.000000 0.884149 0.239067
0.000000 1.000000 0.239067
0.239067 1.000000 0.239067
0.389439 1.000000 0.239067
0.469477 1.000000 0.239067
0.533985 1.000000 0.239067
0.610381 1.000000 0.239067
0.722718 1.000000 0.239067
0.884149 1.000000 0.239067
1.000000 1.000000 0.239067
0.000000 0.000000 0.213101
0.114834 0.000000 0.213101
0.213101 0.000000 0.213101
0.428620 0.000000 0.349230
0.580094 0.000000 0.418986
0.786455 0.000000 0.440265
0.957857 0.000000 0.429341
0.999188 0.000000 0.403989
1.000000 0.000000 0.389439
0.000000 0.114834 0.213101
0.114834 0.114834 0.213101
0.213101 0.114834 0.213101
0.428620 0.206952 0.349230
0.580094 0.264465 0.418986
0.786455 0.283623 0.440265
0.957857 0.273709 0.429341
0.999188 0.251384 0.403989
1.000000 0.239067 0.389439
0.000000 0.213101 0.213101
0.114834 0.213101 0.213101
0.213101 0.213101 0.213101
0.428620 0.349230 0.349230
0.580094 0.418986 0.418986
0.786455 0.440265 0.440265
0.957857 0.429341 0.429341
0.999188 0.403989 0.403989
1.000000 0.389439 0.389439
0.000000 0.428620 0.349230
0.206952 0.428620 0.349230
0.349230 0.428620 0.349230
0.428620 0.428620 0.349230
0.580094 0.501188 0.418986
0.786455 0.526686 0.440265
0.957857 0.513199 0.429341
0.999188 0.484739 0.403989
1.000000 0.469477 0.389439
0.000000 0.580094 0.418986
0.264465 0.580094 0.418986
0.418986 0.580094 0.418986
0.501188 0.580094 0.418986
0.580094 0.580094 0.418986
0.786455 0.625317 0.440265
0.957857 0.600449 0.429341
0.999188 0.554892 0.403989
1.000000 0.533985 0.389439
0.000000 0.786455 0.440265
0.283623 0.786455 0.440265
0.440265 0.786455 0.440265
0.526686 0.786455 0.440265
0.625317 0.786455 0.440265
0.786455 0.786455 0.440265
0.957857 0.735111 0.429341
0.999188 0.646942 0.403989
1.000000 0.610381 0.389439
0.000000 0.957857 0.429341
0.273709 0.957857 0.429341
0.429341 0.957857 0.429341
0.513199 0.957857 0.429341
0.600449 0.957857 0.429341
0.735111 0.957857 0.429341
0.957857 0.957857 0.429341
0.999188 0.789998 0.403989
1.000000 0.722718 0.389439
0.000000 0.999188 0.403989
0.251384 0.999188 0.403989
0.403989 0.999188 0.403989
0.484739 0.999188 0.403989
0.554892 0.999188 0.403989
0.646942 0.999188 0.403989
0.789998 0.999188 0.403989
0.999188 0.999188 0.403989
1.000000 0.884149 0.389439
0.000000 1.000000 0.389439
0.239067 1.000000 0.389439
0.389439 1.000000 0.389439
0.469477 1.000000 0.389439
0.533985 1.000000 0.389439
0.610381 1.000000 0.389439
0.722718 1.000000 0.389439
0.884149 1.000000 0.389439
1.000000 1.000000 0.389439
0.000000 0.000000 0.428620
0.206952 0.000000 0.428620
0.349230 0.000000 0.428620
0.428620 0.000000 0.428620
0.580094 0.000000 0.501188
0.786455 0.000000 0.526686
0.957857 0.000000 0.513199
0.999188 0.000000 0.484739
1.000000 0.000000 0.469477
0.000000 0.206952 0.428620
0.206952 0.206952 0.428620
0.349230 0.206952 0.428620
0.428620 0.206952 0.428620
0.580094 0.264465 0.501188
0.786455 0.283623 0.526686
0.957857 0.273709 0.513199
0.999188 0.251384 0.484739
1.000000 0.239067 0.469477
0.000000 0.349230 0.428620
0.206952 0.349230 0.428620
0.349230 0.349230 0.428620
0.428620 0.349230 0.428620
0.580094 0.418986 0.501188
0.786455 0.440265 0.526686
0.957857 0.429341 0.513199
0.999188 0.403989 0.484739
1.000000 0.389439 0.469477
0.000000 0.428620 0.428620
0.206952 0.428620 0.428620
0.349230 0.428620 0.428620
0.428620 0.428620 0.428620
0.580094 0.501188 0.501188
0.786455 0.526686 0.526686
0.957857 0.513199 0.513199
0.999188 0.484739 0.484739
1.000000 0.469477 0.469477
0.000000 0.580094 0.501188
0.264465 0.580094 0.501188
0.418986 0.580094 0.501188
0.501188 0.580094 0.501188
0.580094 0.580094 0.501188
0.786455 0.625317 0.526686
0.957857 0.600449 0.513199
0.999188 0.554892 0.484739
1.000000 0.533985 0.469477
0.000000 0.786455 0.526686
0.283623 0.786455 0.526686
0.440265 0.786455 0.526686
0.526686 0.786455 0.526686
0.625317 0.786455 0.526686
0.786455 0.786455 0.526686
0.957857 0.735111 0.513199
0.999188 0.646942 0.484739
1.000000 0.610381 0.469477
0.000000 0.957857 0.513199
0.273709 0.957857 0.513199
0.429341 0.957857 0.513199
0.513199 0.957857 0.513199
0.600449 0.957857 0.513199
0.735111 0.957857 0.513199
0.957857 0.957857 0.513199
0.999188 0.789998 0.484739
1.000000 0.722718 0.469477
0.000000 0.999188 0.484739
0.251384 0.999188 0.484739
0.403989 0.999188 0.484739
0.484739 0.999188 0.484739
0.554892 0.999188 0.484739
0.646942 0.999188 0.484739
0.789998 0.999188 0.484739
0.999188 0.999188 0.484739
1.000000 0.884149 0.469477
0.000000 1.000000 0.469477
0.239067 1.000000 0.469477
0.389439 1.000000 0.469477
0.469477 1.000000 0.469477
0.533985 1.000000 0.469477
0.610381 1.000000 0.469477
0.722718 1.000000 0.469477
0.884149 1.000000 0.469477
1.000000 1.000000 0.469477
0.000000 0.000000 0.580094
0.264465 0.000000 0.580094
0.418986 0.000000 0.580094
0.501188 0.000000 0.580094
0.580094 0.000000 0.580094
0.786455 0.000000 0.625317
0.957857 0.000000 0.600449
0.999188 0.000000 0.554892
1.000000 0.000000 0.533985
0.000000 0.264465 0.580094
0.264465 0.264465 0.580094
0.418986 0.264465 0.580094
0.501188 0.264465 0.580094
0.580094 0.264465 0.580094
0.786455 0.283623 0.625317
0.957857 0.273709 0.600449
0.999188 0.251384 0.554892
1.000000 0.239067 0.533985
0.000000 0.418986 0.580094
0.264465 0.418986 0.580094
0.418986 0.418986 0.580094
0.501188 0.418986 0.580094
0.580094 0.418986 0.580094
0.786455 0.440265 0.625317
0.957857 0.429341 0.600449
0.999188 0.403989 0.554892
1.000000 0.389439 0.533985
0.000000 0.501188 0.580094
0.264465 0.501188 0.580094
0.418986 0.501188 0.580094
0.501188 0.501188 0.580094
0.580094 0.501188 0.580094
0.786455 0.526686 0.625317
0.957857 0.513199 0.600449
0.999188 0.484739 0.554892
1.000000 0.469477 0.533985
0.000000 0.580094 0.580094
0.264465 0.580094 0.580094
0.418986 0.580094 0.580094
0.501188 0.580094 0.580094
0.580094 0.580094 0.580094
0.786455 0.625317 0.625317
0.957857 0.600449 0.600449
0.999188 0.554892 0.554892
1.000000 0.533985 0.533985
0.000000 0.786455 0.625317
0.283623 0.786455 0.625317
0.440265 0.786455 0.625317
0.526686 0.786455 0.625317
0.625317 0.786455 0.625317
0.786455 0.786455 0.625317
0.957857 0.735111 0.600449
0.999188 0.646942 0.554892
1.000000 0.610381 0.533985
0.000000 0.957857 0.600449
0.273709 0.957857 0.600449
0.429341 0.957857 0.600449
0.513199 0.957857 0.600449
0.600449 0.957857 0.600449
0.735111 0.957857 0.600449
0.957857 0.957857 0.600449
0.999188 0.789998 0.554892
1.000000 0.722718 0.533985
0.000000 0.999188 0.554892
0.251384 0.999188 0.554892
0.403989 0.999188 0.554892
0.484739 0.999188 0.554892
0.554892 0.999188 0.554892
0.646942 0.999188 0.554892
0.789998 0.999188 0.554892
0.999188 0.999188 0.554892
1.000000 0.884149 0.533985
0.000000 1.000000 0.533985
0.239067 1.000000 0.533985
0.389439 1.000000 0.533985
0.469477 1.000000 0.533985
0.533985 1.000000 0.533985
0.610381 1.000000 0.533985
0.722718 1.000000 0.533985
0.884149 1.000000 0.533985
1.000000 1.000000 0.533985
0.000000 0.000000 0.786455
0.283623 0.000000 0.786455
0.440265 0.000000 0.786455
0.526686 0.000000 0.786455
0.625317 0.000000 0.786455
0.786455 0.000000 0.786455
0.957857 0.000000 0.735111
0.999188 0.000000 0.646942
1.000000 0.000000 0.610381
0.000000 0.283623 0.786455
0.283623 0.283623 0.786455
0.440265 0.283623 0.786455
0.526686 0.283623 0.786455
0.625317 0.283623 0.786455
0.786455 0.283623 0.786455
0.957857 0.273709 0.735111
0.999188 0.251384 0.646942
1.000000 0.239067 0.610381
0.000000 0.440265 0.786455
0.283623 0.440265 0.786455
0.440265 0.440265 0.786455
0.526686 0.440265 0.786455
0.625317 0.440265 0.786455
0.786455 0.440265 0.786455
0.957857 0.429341 0.735111
0.999188 0.403989 0.646942
1.000000 0.389439 0.610381
0.000000 0.526686 0.786455
0.283623 0.526686 0.786455
0.440265 0.526686 0.786455
0.526686 0.526686 0.786455
0.625317 0.526686 0.786455
0.786455 0.526686 0.786455
0.957857 0.513199 0.735111
0.999188 0.484739 0.646942
1.000000 0.469477 0.610381
0.000000 0.625317 0.786455
0.283623 0.625317 0.786455
0.440265 0.625317 0.786455
0.526686 0.625317 0.786455
0.625317 0.625317 0.786455
0.786455 0.625317 0.786455
0.957857 0.600449 0.735111
0.999188 0.554892 0.646942
1.000000 0.533985 0.610381
0.000000 0.786455 0.786455
0.283623 0.786455 0.786455
0.440265 0.786455 0.786455
0.526686 0.786455 0.786455
0.625317 0.786455 0.786455
0.786455 0.786455 0.786455
0.957857 0.735111 0.735111
0.999188 0.646942 0.646942
1.000000 0.610381 0.610381
0.000000 0.957857 0.735111
0.273709 0.957857 0.735111
0.429341 0.957857 0.735111
0.513199 0.957857 0.735111
0.600449 0.957857 0.735111
0.735111 0.957857 0.735111
0.957857 0.957857 0.735111
0.999188 0.789998 0.646942
1.000000 0.722718 0.610381
0.000000 0.999188 0.646942
0.251384 0.999188 0.646942
0.403989 0.999188 0.646942
0.484739 0.999188 0.646942
0.554892 0.999188 0.646942
0.646942 0.999188 0.646942
0.789998 0.999188 0.646942
0.999188 0.999188 0.646942
1.000000 0.884149 0.610381
0.000000 1.000000 0.610381
0.239067 1.000000 0.610381
0.389439 1.000000 0.610381
0.469477 1.000000 0.610381
0.533985 1.000000 0.610381
0.610381 1.000000 0.610381
0.722718 1.000000 0.610381
0.884149 1.000000 0.610381
1.000000 1.000000 0.610381
0.000000 0.000000 0.957857
0.273709 0.000000 0.957857
0.429341 0.000000 0.957857
0.513199 0.000000 0.957857
0.600449 0.000000 0.957857
0.735111 0.000000 0.957857
0.957857 0.000000 0.957857
0.999188 0.000000 0.789998
1.000000 0.000000 0.722718
0.000000 0.273709 0.957857
0.273709 0.273709 0.957857
0.429341 0.273709 0.957857
0.513199 0.273709 0.957857
0.600449 0.273709 0.957857
0.735111 0.273709 0.957857
0.957857 0.273709 0.957857
0.999188 0.251384 0.789998
1.000000 0.239067 0.722718
0.000000 0.429341 0.957857
0.273709 0.429341 0.957857
0.429341 0.429341 0.957857
0.513199 0.429341 0.957857
0.600449 0.429341 0.957857
0.735111 0.429341 0.957857
0.957857 0.429341 0.957857
0.999188 0.403989 0.789998
1.000000 0.389439 0.722718
0.000000 0.513199 0.957857
0.273709 0.513199 0.957857
0.429341 0.513199 0.957857
0.513199 0.513199 0.957857
0.600449 0.513199 0.957857
0.735111 0.513199 0.957857
0.957857 0.513199 0.957857
0.999188 0.484739 0.789998
1.000000 0.469477 0.722718
0.000000 0.600449 0.957857
0.273709 0.600449 0.957857
0.429341 0.600449 0.957857
0.513199 0.600449 0.957857
0.600449 0.600449 0.957857
0.735111 0.600449 0.957857
0.957857 0.600449 0.957857
0.999188 0.554892 0.789998
1.000000 0.533985 0.722718
0.000000 0.735111 0.957857
0.273709 0.735111 0.957857
0.429341 0.735111 0.957857
0.513199 0.735111 0.957857
0.600449 0.735111 0.957857
0.735111 0.735111 0.957857
0.957857 0.735111 0.957857
0.999188 0.646942 0.789998
1.000000 0.610381 0.722718
0.000000 0.957857 0.957857
0.273709 0.957857 0.957857
0.429341 0.957857 0.957857
0.513199 0.957857 0.957857
0.600449 0.957857 0.957857
0.735111 0.957857 0.957857
0.957857 0.957857 0.957857
0.999188 0.789998 0.789998
1.000000 0.722718 0.722718
0.000000 0.999188 0.789998
0.251384 0.999188 0.789998
0.403989 0.999188 0.789998
0.484739 0.999188 0.789998
0.554892 0.999188 0.789998
0.646942 0.999188 0.789998
0.789998 0.999188 0.789998
0.999188 0.999188 0.789998
1.000000 0.884149 0.722718
0.000000 1.000000 0.722718
0.239067 1.000000 0.722718
0.389439 1.000000 0.722718
0.469477 1.000000 0.722718
0.533985 1.000000 0.722718
0.610381 1.000000 0.722718
0.722718 1.000000 0.722718
0.884149 1.000000 0.722718
1.000000 1.000000 0.722718
0.000000 0.000000 0.999188
0.251384 0.000000 0.999188
0.403989 0.000000 0.999188
0.484739 0.000000 0.999188
0.554892 0.000000 0.999188
0.646942 0.000000 0.999188
0.789998 0.000000 0.999188
0.999188 0.000000 0.999188
1.000000 0.000000 0.884149
0.000000 0.251384 0.999188
0.251384 0.251384 0.999188
0.403989 0.251384 0.999188
0.484739 0.251384 0.999188
0.554892 0.251384 0.999188
0.646942 0.251384 0.999188
0.789998 0.251384 0.999188
0.999188 0.251384 0.999188
1.000000 0.239067 0.884149
0.000000 0.403989 0.999188
0.251384 0.403989 0.999188
0.403989 0.403989 0.999188
0.484739 0.403989 0.999188
0.554892 0.403989 0.999188
0.646942 0.403989 0.999188
0.789998 0.403989 0.999188
0.999188 0.403989 0.999188
1.000000 0.389439 0.884149
0.000000 0.484739 0.999188
0.251384 0.484739 0.999188
0.403989 0.484739 0.999188
0.484739 0.484739 0.999188
0.554892 0.484739 0.999188
0.646942 0.484739 0.999188
0.789998 0.484739 0.999188
0.999188 0.484739 0.999188
1.000000 0.469477 0.884149
0.000000 0.554892 0.999188
0.251384 0.554892 0.999188
0.403989 0.554892 0.999188
0.484739 0.554892 0.999188
0.554892 0.554892 0.999188
0.646942 0.554892 0.999188
0.789998 0.554892 0.999188
0.999188 0.554892 0.999188
1.000000 0.533985 0.884149
0.000000 0.646942 0.999188
0.251384 0.646942 0.999188
0.403989 0.646942 0.999188
0.484739 0.646942 0.999188
0.554892 0.646942 0.999188
0.646942 0.646942 0.999188
0.789998 0.646942 0.999188
0.999188 0.646942 0.999188
1.000000 0.610381 0.884149
0.000000 0.789998 0.999188
0.251384 0.789998 0.999188
0.403989 0.789998 0.999188
0.484739 0.789998 0.999188
0.554892 0.789998 0.999188
0.646942 0.789998 0.999188
0.789998 0.789998 0.999188
0.999188 0.789998 0.999188
1.000000 0.722718 0.884149
0.000000 0.999188 0.999188
0.251384 0.999188 0.999188
0.403989 0.999188 0.999188
0.484739 0.999188 0.999188
0.554892 0.999188 0.999188
0.646942 0.999188 0.999188
0.789998 0.999188 0.999188
0.999188 0.999188 0.999188
1.000000 0.884149 0.884149
0.000000 1.000000 0.884149
0.239067 1.000000 0.884149
0.389439 1.000000 0.884149
0.469477 1.000000 0.884149
0.533985 1.000000 0.884149
0.610381 1.000000 0.884149
0.722718 1.000000 0.884149
0.884149 1.000000 0.884149
1.000000 1.000000 0.884149
0.000000 0.000000 1.000000
0.239067 0.000000 1.000000
0.389439 0.000000 1.000000
0.469477 0.000000 1.000000
0.533985 0.000000 1.000000
0.610381 0.000000 1.000000
0.722718 0.000000 1.000000
0.884149 0.000000 1.000000
1.000000 0.000000 1.000000
0.000000 0.239067 1.000000
0.239067 0.239067 1.000000
0.389439 0.239067 1.000000
0.469477 0.239067 1.000000
0.533985 0.239067 1.000000
0.610381 0.239067 1.000000
0.722718 0.239067 1.000000
0.884149 0.239067 1.000000
1.000000 0.239067 1.000000
0.000000 0.389439 1.000000
0.239067 0.389439 1.000000
0.389439 0.389439 1.000000
0.469477 0.389439 1.000000
0.533985 0.389439 1.000000
0.610381 0.389439 1.000000
0.722718 0.389439 1.000000
0.884149 0.389439 1.000000
1.000000 0.389439 1.000000
0.000000 0.469477 1.000000
0.239067 0.469477 1.000000
0.389439 0.469477 1.000000
0.469477 0.469477 1.000000
0.533985 0.469477 1.000000
0.610381 0.469477 1.000000
0.722718 0.469477 1.000000
0.884149 0.469477 1.000000
1.000000 0.469477 1.000000
0.000000 0.533985 1.000000
0.239067 0.533985 1.000000
0.389439 0.533985 1.000000
0.469477 0.533985 1.000000
0.533985 0.533985 1.000000
0.610381 0.533985 1.000000
0.722718 0.533985 1.000000
0.884149 0.533985 1.000000
1.000000 0.533985 1.000000
0.000000 0.610381 1.000000
0.239067 0.610381 1.000000
0.389439 0.610381 1.000000
0.469477 0.610381 1.000000
0.533985 0.610381 1.000000
0.610381 0.610381 1.000000
0.722718 0.610381 1.000000
0.884149 0.610381 1.000000
1.000000 0.610381 1.000000
0.000000 0.722718 1.000000
0.239067 0.722718 1.000000
0.389439 0.722718 1.000000
0.469477 0.722718 1.000000
0.533985 0.722718 1.000000
0.610381 0.722718 1.000000
0.722718 0.722718 1.000000
0.884149 0.722718 1.000000
1.000000 0.722718 1.000000
0.000000 0.884149 1.000000
0.239067 0.884149 1.000000
0.389439 0.884149 1.000000
0.469477 0.884149 1.000000
0.533985 0.884149 1.000000
0.610381 0.884149 1.000000
0.722718 0.884149 1.000000
0.884149 0.884149 1.000000
1.000000 0.884149 1.000000
0.000000 1.000000 1.000000
0.239067 1.000000 1.000000
0.389439 1.000000 1.000000
0.469477 1.000000 1.000000
0.533985 1.000000 1.000000
0.610381 1.000000 1.000000
0.722718 1.000000 1.000000
0.884149 1.000000 1.000000
1.000000 1.000000 1.000000
