app/src/main/assets/BleachBypass3.cube
TITLE "Generated by RED"
LUT_3D_SIZE 5
0.000000 0.000000 0.000000
0.213101 0.000000 0.000000
0.580094 0.000000 0.000000
0.957857 0.000000 0.000000
1.000000 0.000000 0.000000
0.000000 0.213101 0.000000
0.213101 0.213101 0.000000
0.580094 0.418986 0.000000
0.957857 0.429341 0.000000
1.000000 0.389439 0.000000
0.000000 0.580094 0.000000
0.418986 0.580094 0.000000
0.580094 0.580094 0.000000
0.957857 0.600449 0.000000
1.000000 0.533985 0.000000
0.000000 0.957857 0.000000
0.429341 0.957857 0.000000
0.600449 0.957857 0.000000
0.957857 0.957857 0.000000
1.000000 0.722718 0.000000
0.000000 1.000000 0.000000
0.389439 1.000000 0.000000
0.533985 1.000000 0.000000
0.722718 1.000000 0.000000
1.000000 1.000000 0.000000
0.000000 0.000000 0.213101
0.213101 0.000000 0.213101
0.580094 0.000000 0.418986
0.957857 0.000000 0.429341
1.000000 0.000000 0.389439
0.000000 0.213101 0.213101
0.213101 0.213101 0.213101
0.580094 0.418986 0.418986
0.957857 0.429341 0.429341
1.000000 0.389439 0.389439
0.000000 0.580094 0.418986
0.418986 0.580094 0.418986
0.580094 0.580094 0.418986
0.957857 0.600449 0.429341
1.000000 0.533985 0.389439
0.000000 0.957857 0.429341
0.429341 0.957857 0.429341
0.600449 0.957857 0.429341
0.957857 0.957857 0.429341
1.000000 0.722718 0.389439
0.000000 1.000000 0.389439
0.389439 1.000000 0.389439
0.533985 1.000000 0.389439
0.722718 1.000000 0.389439
1.000000 1.000000 0.389439
0.000000 0.000000 0.580094
0.418986 0.000000 0.580094
0.580094 0.000000 0.580094
0.957857 0.000000 0.600449
1.000000 0.000000 0.533985
0.000000 0.418986 0.580094
0.418986 0.418986 0.580094
0.580094 0.418986 0.580094
0.957857 0.429341 0.600449
1.000000 0.389439 0.533985
0.000000 0.580094 0.580094
0.418986 0.580094 0.580094
0.580094 0.580094 0.580094
0.957857 0.600449 0.600449
1.000000 0.533985 0.533985
0.000000 0.957857 0.600449
0.429341 0.957857 0.600449
0.600449 0.957857 0.600449
0.957857 0.957857 0.600449
1.000000 0.722718 0.533985
0.000000 1.000000 0.533985
0.389439 1.000000 0.533985
0.533985 1.000000 0.533985
0.722718 1.000000 0.533985
1.000000 1.000000 0.533985
0.000000 0.000000 0.957857
0.429341 0.000000 0.957857
0.600449 0.000000 0.957857
0.957857 0.000000 0.957857
1.000000 0.000000 0.722718
0.000000 0.429341 0.957857
0.429341 0.429341 0.957857
0.600449 0.429341 0.957857
0.957857 0.429341 0.957857
1.000000 0.389439 0.722718
0.000000 0.600449 0.957857
0.429341 0.600449 0.957857
0.600449 0.600449 0.957857
0.957857 0.600449 0.957857
1.000000 0.533985 0.722718
0.000000 0.957857 0.957857
0.429341 0.957857 0.957857
0.600449 0.957857 0.957857
0.957857 0.957857 0.957857
1.000000 0.722718 0.722718
0.000000 1.000000 0.722718
0.389439 1.000000 0.722718
0.533985 1.000000 0.722718
0.722718 1.000000 0.722718
1.000000 1.000000 0.722718
0.000000 0.000000 1.000000
0.389439 0.000000 1.000000
0.533985 0.000000 1.000000
0.722718 0.000000 1.000000
1.000000 0.000000 1.000000
0.000000 0.389439 1.000000
0.389439 0.389439 1.000000
0.533985 0.389439 1.000000
0.722718 0.389439 1.000000
1.000000 0.389439 1.000000
0.000000 0.533985 1.000000
0.389439 0.533985 1.000000
0.533985 0.533985 1.000000
0.722718 0.533985 1.000000
1.000000 0.533985 1.000000
0.000000 0.722718 1.000000
0.389439 0.722718 1.000000
0.533985 0.722718 1.000000
0.722718 0.722718 1.000000
1.000000 0.722718 1.000000
0.000000 1.000000 1.000000
0.389439 1.000000 1.000000
0.533985 1.000000 1.000000
0.722718 1.000000 1.000000
1.000000 1.000000 1.000000
