app/src/main/assets/Strip3.cube
TITLE "Generated by RED"
LUT_3D_SIZE 9
0.000000 0.000000 0.000000
0.125000 0.000000 0.000000
0.250000 0.000000 0.000000
0.375000 0.000000 0.000000
0.500000 0.000000 0.000000
0.625000 0.000000 0.000000
0.750000 0.000000 0.000000
0.875000 0.000000 0.000000
1.000000 0.000000 0.000000
0.000000 0.125000 0.000000
0.101563 0.101563 0.000000
0.250000 0.054688 0.000000
0.375000 0.007813 0.000000
0.500000 -0.039063 0.000000
0.625000 -0.085938 0.000000
0.750000 -0.132813 0.000000
0.875000 -0.179688 0.000000
1.000000 -0.226563 0.000000
0.000000 0.250000 0.000000
0.054688 0.250000 0.000000
0.156250 0.156250 0.000000
0.304688 0.062500 0.000000
0.500000 -0.031250 0.000000
0.625000 -0.125000 0.000000
0.750000 -0.218750 0.000000
0.875000 -0.312500 0.000000
1.000000 -0.406250 0.000000
0.000000 0.375000 0.000000
0.007813 0.375000 0.000000
0.062500 0.304688 0.000000
0.164063 0.164063 0.000000
0.312500 0.023438 0.000000
0.507813 -0.117188 0.000000
0.750000 -0.257813 0.000000
0.875000 -0.398438 0.000000
1.000000 -0.539063 0.000000
0.000000 0.500000 0.000000
-0.039063 0.500000 0.000000
-0.031250 0.500000 0.000000
0.023438 0.312500 0.000000
0.125000 0.125000 0.000000
0.273438 -0.062500 0.000000
0.468750 -0.250000 0.000000
0.710938 -0.437500 0.000000
1.000000 -0.625000 0.000000
0.000000 0.625000 0.000000
-0.085938 0.625000 0.000000
-0.125000 0.625000 0.000000
-0.117188 0.507813 0.000000
-0.062500 0.273438 0.000000
0.039063 0.039063 0.000000
0.187500 -0.195313 0.000000
0.382813 -0.429688 0.000000
0.625000 -0.664063 0.000000
0.000000 0.750000 0.000000
-0.132813 0.750000 0.000000
-0.218750 0.750000 0.000000
-0.257813 0.750000 0.000000
-0.250000 0.468750 0.000000
-0.195313 0.187500 0.000000
-0.093750 -0.093750 0.000000
0.054688 -0.375000 0.000000
0.250000 -0.656250 0.000000
0.000000 0.875000 0.000000
-0.179688 0.875000 0.000000
-0.312500 0.875000 0.000000
-0.398438 0.875000 0.000000
-0.437500 0.710938 0.000000
-0.429688 0.382813 0.000000
-0.375000 0.054688 0.000000
-0.273438 -0.273438 0.000000
-0.125000 -0.601563 0.000000
0.000000 1.000000 0.000000
-0.226563 1.000000 0.000000
-0.406250 1.000000 0.000000
-0.539063 1.000000 0.000000
-0.625000 1.000000 0.000000
-0.664063 0.625000 0.000000
-0.656250 0.250000 0.000000
-0.601563 -0.125000 0.000000
-0.500000 -0.500000 0.000000
0.000000 0.000000 0.125000
0.101563 0.000000 0.101563
0.250000 0.000000 0.054688
0.375000 0.000000 0.007813
0.500000 0.000000 -0.039063
0.625000 0.000000 -0.085938
0.750000 0.000000 -0.132813
0.875000 0.000000 -0.179688
1.000000 0.000000 -0.226563
0.000000 0.101563 0.101563
0.125000 0.125000 0.125000
0.250000 0.078125 0.078125
0.375000 0.031250 0.031250
0.500000 -0.015625 -0.015625
0.625000 -0.062500 -0.062500
0.750000 -0.109375 -0.109375
0.875000 -0.156250 -0.156250
1.000000 -0.203125 -0.203125
0.000000 0.250000 0.054688
0.078125 0.250000 0.078125
0.203125 0.203125 0.079590
0.375000 0.109375 0.054688
0.500000 0.015625 0.007813
0.625000 -0.078125 -0.039063
0.750000 -0.171875 -0.085938
0.875000 -0.265625 -0.132813
1.000000 -0.359375 -0.179688
0.000000 0.375000 0.007813
0.031250 0.375000 0.031250
0.109375 0.375000 0.054688
0.234375 0.234375 0.037109
0.406250 0.093750 0.013672
0.625000 -0.046875 -0.015625
0.750000 -0.187500 -0.062500
0.875000 -0.328125 -0.109375
1.000000 -0.468750 -0.156250
0.000000 0.500000 -0.039063
-0.015625 0.500000 -0.015625
0.015625 0.500000 0.007813
0.093750 0.406250 0.013672
0.218750 0.218750 -0.002441
0.390625 0.031250 -0.024414
0.609375 -0.156250 -0.052246
0.875000 -0.343750 -0.085938
1.000000 -0.531250 -0.132813
0.000000 0.625000 -0.085938
-0.062500 0.625000 -0.062500
-0.078125 0.625000 -0.039063
-0.046875 0.625000 -0.015625
0.031250 0.390625 -0.024414
0.156250 0.156250 -0.039063
0.328125 -0.078125 -0.059570
0.546875 -0.312500 -0.085938
0.812500 -0.546875 -0.118164
0.000000 0.750000 -0.132813
-0.109375 0.750000 -0.109375
-0.171875 0.750000 -0.085938
-0.187500 0.750000 -0.062500
-0.156250 0.609375 -0.052246
-0.078125 0.328125 -0.059570
0.046875 0.046875 -0.072754
0.218750 -0.234375 -0.091797
0.437500 -0.515625 -0.116699
0.000000 0.875000 -0.179688
-0.156250 0.875000 -0.156250
-0.265625 0.875000 -0.132813
-0.328125 0.875000 -0.109375
-0.343750 0.875000 -0.085938
-0.312500 0.546875 -0.085938
-0.234375 0.218750 -0.091797
-0.109375 -0.109375 -0.103516
0.062500 -0.437500 -0.121094
0.000000 1.000000 -0.226563
-0.203125 1.000000 -0.203125
-0.359375 1.000000 -0.179688
-0.468750 1.000000 -0.156250
-0.531250 1.000000 -0.132813
-0.546875 0.812500 -0.118164
-0.515625 0.437500 -0.116699
-0.437500 0.062500 -0.121094
-0.312500 -0.312500 -0.131348
0.000000 0.000000 0.250000
0.054688 0.000000 0.250000
0.156250 0.000000 0.156250
0.304688 0.000000 0.062500
0.500000 0.000000 -0.031250
0.625000 0.000000 -0.125000
0.750000 0.000000 -0.218750
0.875000 0.000000 -0.312500
1.000000 0.000000 -0.406250
0.000000 0.054688 0.250000
0.078125 0.078125 0.250000
0.203125 0.079590 0.203125
0.375000 0.054688 0.109375
0.500000 0.007813 0.015625
0.625000 -0.039063 -0.078125
0.750000 -0.085938 -0.171875
0.875000 -0.132813 -0.265625
1.000000 -0.179688 -0.359375
0.000000 0.156250 0.156250
0.079590 0.203125 0.203125
0.250000 0.250000 0.250000
0.375000 0.156250 0.156250
0.500000 0.062500 0.062500
0.625000 -0.031250 -0.031250
0.750000 -0.125000 -0.125000
0.875000 -0.218750 -0.218750
1.000000 -0.312500 -0.312500
0.000000 0.304688 0.062500
0.054688 0.375000 0.109375
0.156250 0.375000 0.156250
0.304688 0.304688 0.159180
0.500000 0.164063 0.109375
0.625000 0.023438 0.015625
0.750000 -0.117188 -0.078125
0.875000 -0.257813 -0.171875
1.000000 -0.398438 -0.265625
0.000000 0.500000 -0.031250
0.007813 0.500000 0.015625
0.062500 0.500000 0.062500
0.164063 0.500000 0.109375
0.312500 0.312500 0.074219
0.507813 0.125000 0.027344
0.750000 -0.062500 -0.031250
0.875000 -0.250000 -0.125000
1.000000 -0.437500 -0.218750
0.000000 0.625000 -0.125000
-0.039063 0.625000 -0.078125
-0.031250 0.625000 -0.031250
0.023438 0.625000 0.015625
0.125000 0.507813 0.027344
0.273438 0.273438 -0.004883
0.468750 0.039063 -0.048828
0.710938 -0.195313 -0.104492
1.000000 -0.429688 -0.171875
0.000000 0.750000 -0.218750
-0.085938 0.750000 -0.171875
-0.125000 0.750000 -0.125000
-0.117188 0.750000 -0.078125
-0.062500 0.750000 -0.031250
0.039063 0.468750 -0.048828
0.187500 0.187500 -0.078125
0.382813 -0.093750 -0.119141
0.625000 -0.375000 -0.171875
0.000000 0.875000 -0.312500
-0.132813 0.875000 -0.265625
-0.218750 0.875000 -0.218750
-0.257813 0.875000 -0.171875
-0.250000 0.875000 -0.125000
-0.195313 0.710938 -0.104492
-0.093750 0.382813 -0.119141
0.054688 0.054688 -0.145508
0.250000 -0.273438 -0.183594
0.000000 1.000000 -0.406250
-0.179688 1.000000 -0.359375
-0.312500 1.000000 -0.312500
-0.398438 1.000000 -0.265625
-0.437500 1.000000 -0.218750
-0.429688 1.000000 -0.171875
-0.375000 0.625000 -0.171875
-0.273438 0.250000 -0.183594
-0.125000 -0.125000 -0.207031
0.000000 0.000000 0.375000
0.007813 0.000000 0.375000
0.062500 0.000000 0.304688
0.164063 0.000000 0.164063
0.312500 0.000000 0.023438
0.507813 0.000000 -0.117188
0.750000 0.000000 -0.257813
0.875000 0.000000 -0.398438
1.000000 0.000000 -0.539063
0.000000 0.007813 0.375000
0.031250 0.031250 0.375000
0.109375 0.054688 0.375000
0.234375 0.037109 0.234375
0.406250 0.013672 0.093750
0.625000 -0.015625 -0.046875
0.750000 -0.062500 -0.187500
0.875000 -0.109375 -0.328125
1.000000 -0.156250 -0.468750
0.000000 0.062500 0.304688
0.054688 0.109375 0.375000
0.156250 0.156250 0.375000
0.304688 0.159180 0.304688
0.500000 0.109375 0.164063
0.625000 0.015625 0.023438
0.750000 -0.078125 -0.117188
0.875000 -0.171875 -0.257813
1.000000 -0.265625 -0.398438
0.000000 0.164063 0.164063
0.037109 0.234375 0.234375
0.159180 0.304688 0.304688
0.375000 0.375000 0.375000
0.500000 0.234375 0.234375
0.625000 0.093750 0.093750
0.750000 -0.046875 -0.046875
0.875000 -0.187500 -0.187500
1.000000 -0.328125 -0.328125
0.000000 0.312500 0.023438
0.013672 0.406250 0.093750
0.109375 0.500000 0.164063
0.234375 0.500000 0.234375
0.406250 0.406250 0.238770
0.625000 0.218750 0.164063
0.750000 0.031250 0.023438
0.875000 -0.156250 -0.117188
1.000000 -0.343750 -0.257813
0.000000 0.507813 -0.117188
-0.015625 0.625000 -0.046875
0.015625 0.625000 0.023438
0.093750 0.625000 0.093750
0.218750 0.625000 0.164063
0.390625 0.390625 0.111328
0.609375 0.156250 0.041016
0.875000 -0.078125 -0.046875
1.000000 -0.312500 -0.187500
0.000000 0.750000 -0.257813
-0.062500 0.750000 -0.187500
-0.078125 0.750000 -0.117188
-0.046875 0.750000 -0.046875
0.031250 0.750000 0.023438
0.156250 0.609375 0.041016
0.328125 0.328125 -0.007324
0.546875 0.046875 -0.073242
0.812500 -0.234375 -0.156738
0.000000 0.875000 -0.398438
-0.109375 0.875000 -0.328125
-0.171875 0.875000 -0.257813
-0.187500 0.875000 -0.187500
-0.156250 0.875000 -0.117188
-0.078125 0.875000 -0.046875
0.046875 0.546875 -0.073242
0.218750 0.218750 -0.117188
0.437500 -0.109375 -0.178711
0.000000 1.000000 -0.539063
-0.156250 1.000000 -0.468750
-0.265625 1.000000 -0.398438
-0.328125 1.000000 -0.328125
-0.343750 1.000000 -0.257813
-0.312500 1.000000 -0.187500
-0.234375 0.812500 -0.156738
-0.109375 0.437500 -0.178711
0.062500 0.062500 -0.218262
0.000000 0.000000 0.500000
-0.039063 0.000000 0.500000
-0.031250 0.000000 0.500000
0.023438 0.000000 0.312500
0.125000 0.000000 0.125000
0.273438 0.000000 -0.062500
0.468750 0.000000 -0.250000
0.710938 0.000000 -0.437500
1.000000 0.000000 -0.625000
0.000000 -0.039063 0.500000
-0.015625 -0.015625 0.500000
0.015625 0.007813 0.500000
0.093750 0.013672 0.406250
0.218750 -0.002441 0.218750
0.390625 -0.024414 0.031250
0.609375 -0.052246 -0.156250
0.875000 -0.085938 -0.343750
1.000000 -0.132813 -0.531250
0.000000 -0.031250 0.500000
0.007813 0.015625 0.500000
0.062500 0.062500 0.500000
0.164063 0.109375 0.500000
0.312500 0.074219 0.312500
0.507813 0.027344 0.125000
0.750000 -0.031250 -0.062500
0.875000 -0.125000 -0.250000
1.000000 -0.218750 -0.437500
0.000000 0.023438 0.312500
0.013672 0.093750 0.406250
0.109375 0.164063 0.500000
0.234375 0.234375 0.500000
0.406250 0.238770 0.406250
0.625000 0.164063 0.218750
0.750000 0.023438 0.031250
0.875000 -0.117188 -0.156250
1.000000 -0.257813 -0.343750
0.000000 0.125000 0.125000
-0.002441 0.218750 0.218750
0.074219 0.312500 0.312500
0.238770 0.406250 0.406250
0.500000 0.500000 0.500000
0.625000 0.312500 0.312500
0.750000 0.125000 0.125000
0.875000 -0.062500 -0.062500
1.000000 -0.250000 -0.250000
0.000000 0.273438 -0.062500
-0.024414 0.390625 0.031250
0.027344 0.507813 0.125000
0.164063 0.625000 0.218750
0.312500 0.625000 0.312500
0.507813 0.507813 0.318359
0.750000 0.273438 0.218750
0.875000 0.039063 0.031250
1.000000 -0.195313 -0.156250
0.000000 0.468750 -0.250000
-0.052246 0.609375 -0.156250
-0.031250 0.750000 -0.062500
0.023438 0.750000 0.031250
0.125000 0.750000 0.125000
0.273438 0.750000 0.218750
0.468750 0.468750 0.148438
0.710938 0.187500 0.054688
1.000000 -0.093750 -0.062500
0.000000 0.710938 -0.437500
-0.085938 0.875000 -0.343750
-0.125000 0.875000 -0.250000
-0.117188 0.875000 -0.156250
-0.062500 0.875000 -0.062500
0.039063 0.875000 0.031250
0.187500 0.710938 0.054688
0.382813 0.382813 -0.009766
0.625000 0.054688 -0.097656
0.000000 1.000000 -0.625000
-0.132813 1.000000 -0.531250
-0.218750 1.000000 -0.437500
-0.257813 1.000000 -0.343750
-0.250000 1.000000 -0.250000
-0.195313 1.000000 -0.156250
-0.093750 1.000000 -0.062500
0.054688 0.625000 -0.097656
0.250000 0.250000 -0.156250
0.000000 0.000000 0.625000
-0.085938 0.000000 0.625000
-0.125000 0.000000 0.625000
-0.117188 0.000000 0.507813
-0.062500 0.000000 0.273438
0.039063 0.000000 0.039063
0.187500 0.000000 -0.195313
0.382813 0.000000 -0.429688
0.625000 0.000000 -0.664063
0.000000 -0.085938 0.625000
-0.062500 -0.062500 0.625000
-0.078125 -0.039063 0.625000
-0.046875 -0.015625 0.625000
0.031250 -0.024414 0.390625
0.156250 -0.039063 0.156250
0.328125 -0.059570 -0.078125
0.546875 -0.085938 -0.312500
0.812500 -0.118164 -0.546875
0.000000 -0.125000 0.625000
-0.039063 -0.078125 0.625000
-0.031250 -0.031250 0.625000
0.023438 0.015625 0.625000
0.125000 0.027344 0.507813
0.273438 -0.004883 0.273438
0.468750 -0.048828 0.039063
0.710938 -0.104492 -0.195313
1.000000 -0.171875 -0.429688
0.000000 -0.117188 0.507813
-0.015625 -0.046875 0.625000
0.015625 0.023438 0.625000
0.093750 0.093750 0.625000
0.218750 0.164063 0.625000
0.390625 0.111328 0.390625
0.609375 0.041016 0.156250
0.875000 -0.046875 -0.078125
1.000000 -0.187500 -0.312500
0.000000 -0.062500 0.273438
-0.024414 0.031250 0.390625
0.027344 0.125000 0.507813
0.164063 0.218750 0.625000
0.312500 0.312500 0.625000
0.507813 0.318359 0.507813
0.750000 0.218750 0.273438
0.875000 0.031250 0.039063
1.000000 -0.156250 -0.195313
0.000000 0.039063 0.039063
-0.039063 0.156250 0.156250
-0.004883 0.273438 0.273438
0.111328 0.390625 0.390625
0.318359 0.507813 0.507813
0.625000 0.625000 0.625000
0.750000 0.390625 0.390625
0.875000 0.156250 0.156250
1.000000 -0.078125 -0.078125
0.000000 0.187500 -0.195313
-0.059570 0.328125 -0.078125
-0.048828 0.468750 0.039063
0.041016 0.609375 0.156250
0.218750 0.750000 0.273438
0.390625 0.750000 0.390625
0.609375 0.609375 0.397949
0.875000 0.328125 0.273438
1.000000 0.046875 0.039063
0.000000 0.382813 -0.429688
-0.085938 0.546875 -0.312500
-0.104492 0.710938 -0.195313
-0.046875 0.875000 -0.078125
0.031250 0.875000 0.039063
0.156250 0.875000 0.156250
0.328125 0.875000 0.273438
0.546875 0.546875 0.185547
0.812500 0.218750 0.068359
0.000000 0.625000 -0.664063
-0.118164 0.812500 -0.546875
-0.171875 1.000000 -0.429688
-0.187500 1.000000 -0.312500
-0.156250 1.000000 -0.195313
-0.078125 1.000000 -0.078125
0.046875 1.000000 0.039063
0.218750 0.812500 0.068359
0.437500 0.437500 -0.012207
0.000000 0.000000 0.750000
-0.132813 0.000000 0.750000
-0.218750 0.000000 0.750000
-0.257813 0.000000 0.750000
-0.250000 0.000000 0.468750
-0.195313 0.000000 0.187500
-0.093750 0.000000 -0.093750
0.054688 0.000000 -0.375000
0.250000 0.000000 -0.656250
0.000000 -0.132813 0.750000
-0.109375 -0.109375 0.750000
-0.171875 -0.085938 0.750000
-0.187500 -0.062500 0.750000
-0.156250 -0.052246 0.609375
-0.078125 -0.059570 0.328125
0.046875 -0.072754 0.046875
0.218750 -0.091797 -0.234375
0.437500 -0.116699 -0.515625
0.000000 -0.218750 0.750000
-0.085938 -0.171875 0.750000
-0.125000 -0.125000 0.750000
-0.117188 -0.078125 0.750000
-0.062500 -0.031250 0.750000
0.039063 -0.048828 0.468750
0.187500 -0.078125 0.187500
0.382813 -0.119141 -0.093750
0.625000 -0.171875 -0.375000
0.000000 -0.257813 0.750000
-0.062500 -0.187500 0.750000
-0.078125 -0.117188 0.750000
-0.046875 -0.046875 0.750000
0.031250 0.023438 0.750000
0.156250 0.041016 0.609375
0.328125 -0.007324 0.328125
0.546875 -0.073242 0.046875
0.812500 -0.156738 -0.234375
0.000000 -0.250000 0.468750
-0.052246 -0.156250 0.609375
-0.031250 -0.062500 0.750000
0.023438 0.031250 0.750000
0.125000 0.125000 0.750000
0.273438 0.218750 0.750000
0.468750 0.148438 0.468750
0.710938 0.054688 0.187500
1.000000 -0.062500 -0.093750
0.000000 -0.195313 0.187500
-0.059570 -0.078125 0.328125
-0.048828 0.039063 0.468750
0.041016 0.156250 0.609375
0.218750 0.273438 0.750000
0.390625 0.390625 0.750000
0.609375 0.397949 0.609375
0.875000 0.273438 0.328125
1.000000 0.039063 0.046875
0.000000 -0.093750 -0.093750
-0.072754 0.046875 0.046875
-0.078125 0.187500 0.187500
-0.007324 0.328125 0.328125
0.148438 0.468750 0.468750
0.397949 0.609375 0.609375
0.750000 0.750000 0.750000
0.875000 0.468750 0.468750
1.000000 0.187500 0.187500
0.000000 0.054688 -0.375000
-0.091797 0.218750 -0.234375
-0.119141 0.382813 -0.093750
-0.073242 0.546875 0.046875
0.054688 0.710938 0.187500
0.273438 0.875000 0.328125
0.468750 0.875000 0.468750
0.710938 0.710938 0.477539
1.000000 0.382813 0.328125
0.000000 0.250000 -0.656250
-0.116699 0.437500 -0.515625
-0.171875 0.625000 -0.375000
-0.156738 0.812500 -0.234375
-0.062500 1.000000 -0.093750
0.039063 1.000000 0.046875
0.187500 1.000000 0.187500
0.382813 1.000000 0.328125
0.625000 0.625000 0.222656
0.000000 0.000000 0.875000
-0.179688 0.000000 0.875000
-0.312500 0.000000 0.875000
-0.398438 0.000000 0.875000
-0.437500 0.000000 0.710938
-0.429688 0.000000 0.382813
-0.375000 0.000000 0.054688
-0.273438 0.000000 -0.273438
-0.125000 0.000000 -0.601563
0.000000 -0.179688 0.875000
-0.156250 -0.156250 0.875000
-0.265625 -0.132813 0.875000
-0.328125 -0.109375 0.875000
-0.343750 -0.085938 0.875000
-0.312500 -0.085938 0.546875
-0.234375 -0.091797 0.218750
-0.109375 -0.103516 -0.109375
0.062500 -0.121094 -0.437500
0.000000 -0.312500 0.875000
-0.132813 -0.265625 0.875000
-0.218750 -0.218750 0.875000
-0.257813 -0.171875 0.875000
-0.250000 -0.125000 0.875000
-0.195313 -0.104492 0.710938
-0.093750 -0.119141 0.382813
0.054688 -0.145508 0.054688
0.250000 -0.183594 -0.273438
0.000000 -0.398438 0.875000
-0.109375 -0.328125 0.875000
-0.171875 -0.257813 0.875000
-0.187500 -0.187500 0.875000
-0.156250 -0.117188 0.875000
-0.078125 -0.046875 0.875000
0.046875 -0.073242 0.546875
0.218750 -0.117188 0.218750
0.437500 -0.178711 -0.109375
0.000000 -0.437500 0.710938
-0.085938 -0.343750 0.875000
-0.125000 -0.250000 0.875000
-0.117188 -0.156250 0.875000
-0.062500 -0.062500 0.875000
0.039063 0.031250 0.875000
0.187500 0.054688 0.710938
0.382813 -0.009766 0.382813
0.625000 -0.097656 0.054688
0.000000 -0.429688 0.382813
-0.085938 -0.312500 0.546875
-0.104492 -0.195313 0.710938
-0.046875 -0.078125 0.875000
0.031250 0.039063 0.875000
0.156250 0.156250 0.875000
0.328125 0.273438 0.875000
0.546875 0.185547 0.546875
0.812500 0.068359 0.218750
0.000000 -0.375000 0.054688
-0.091797 -0.234375 0.218750
-0.119141 -0.093750 0.382813
-0.073242 0.046875 0.546875
0.054688 0.187500 0.710938
0.273438 0.328125 0.875000
0.468750 0.468750 0.875000
0.710938 0.477539 0.710938
1.000000 0.328125 0.382813
0.000000 -0.273438 -0.273438
-0.103516 -0.109375 -0.109375
-0.145508 0.054688 0.054688
-0.117188 0.218750 0.218750
-0.009766 0.382813 0.382813
0.185547 0.546875 0.546875
0.477539 0.710938 0.710938
0.875000 0.875000 0.875000
1.000000 0.546875 0.546875
0.000000 -0.125000 -0.601563
-0.121094 0.062500 -0.437500
-0.183594 0.250000 -0.273438
-0.178711 0.437500 -0.109375
-0.097656 0.625000 0.054688
0.068359 0.812500 0.218750
0.328125 1.000000 0.382813
0.546875 1.000000 0.546875
0.812500 0.812500 0.557129
0.000000 0.000000 1.000000
-0.226563 0.000000 1.000000
-0.406250 0.000000 1.000000
-0.539063 0.000000 1.000000
-0.625000 0.000000 1.000000
-0.664063 0.000000 0.625000
-0.656250 0.000000 0.250000
-0.601563 0.000000 -0.125000
-0.500000 0.000000 -0.500000
0.000000 -0.226563 1.000000
-0.203125 -0.203125 1.000000
-0.359375 -0.179688 1.000000
-0.468750 -0.156250 1.000000
-0.531250 -0.132813 1.000000
-0.546875 -0.118164 0.812500
-0.515625 -0.116699 0.437500
-0.437500 -0.121094 0.062500
-0.312500 -0.131348 -0.312500
0.000000 -0.406250 1.000000
-0.179688 -0.359375 1.000000
-0.312500 -0.312500 1.000000
-0.398438 -0.265625 1.000000
-0.437500 -0.218750 1.000000
-0.429688 -0.171875 1.000000
-0.375000 -0.171875 0.625000
-0.273438 -0.183594 0.250000
-0.125000 -0.207031 -0.125000
0.000000 -0.539063 1.000000
-0.156250 -0.468750 1.000000
-0.265625 -0.398438 1.000000
-0.328125 -0.328125 1.000000
-0.343750 -0.257813 1.000000
-0.312500 -0.187500 1.000000
-0.234375 -0.156738 0.812500
-0.109375 -0.178711 0.437500
0.062500 -0.218262 0.062500
0.000000 -0.625000 1.000000
-0.132813 -0.531250 1.000000
-0.218750 -0.437500 1.000000
-0.257813 -0.343750 1.000000
-0.250000 -0.250000 1.000000
-0.195313 -0.156250 1.000000
-0.093750 -0.062500 1.000000
0.054688 -0.097656 0.625000
0.250000 -0.156250 0.250000
0.000000 -0.664063 0.625000
-0.118164 -0.546875 0.812500
-0.171875 -0.429688 1.000000
-0.187500 -0.312500 1.000000
-0.156250 -0.195313 1.000000
-0.078125 -0.078125 1.000000
0.046875 0.039063 1.000000
0.218750 0.068359 0.812500
0.437500 -0.012207 0.437500
0.000000 -0.656250 0.250000
-0.116699 -0.515625 0.437500
-0.171875 -0.375000 0.625000
-0.156738 -0.234375 0.812500
-0.062500 -0.093750 1.000000
0.039063 0.046875 1.000000
0.187500 0.187500 1.000000
0.382813 0.328125 1.000000
0.625000 0.222656 0.625000
0.000000 -0.601563 -0.125000
-0.121094 -0.437500 0.062500
-0.183594 -0.273438 0.250000
-0.178711 -0.109375 0.437500
-0.097656 0.054688 0.625000
0.068359 0.218750 0.812500
0.328125 0.382813 1.000000
0.546875 0.546875 1.000000
0.812500 0.557129 0.812500
0.000000 -0.500000 -0.500000
-0.131348 -0.312500 -0.312500
-0.207031 -0.125000 -0.125000
-0.218262 0.062500 0.062500
-0.156250 0.250000 0.250000
-0.012207 0.437500 0.437500
0.222656 0.625000 0.625000
0.557129 0.812500 0.812500
1.000000 1.000000 1.000000
