app/src/main/assets/Strip3.cube
TITLE "Generated by RED"
LUT_3D_SIZE 33
0.000000 0.000000 0.000000
0.031250 0.000000 0.000000
0.062500 0.000000 0.000000
0.093750 0.000000 0.000000
0.125000 0.000000 0.000000
0.156250 0.000000 0.000000
0.187500 0.000000 0.000000
0.218750 0.000000 0.000000
0.250000 0.000000 0.000000
0.281250 0.000000 0.000000
0.312500 0.000000 0.000000
0.343750 0.000000 0.000000
0.375000 0.000000 0.000000
0.406250 0.000000 0.000000
0.437500 0.000000 0.000000
0.468750 0.000000 0.000000
0.500000 0.000000 0.000000
0.531250 0.000000 0.000000
0.562500 0.000000 0.000000
0.593750 0.000000 0.000000
0.625000 0.000000 0.000000
0.656250 0.000000 0.000000
0.687500 0.000000 0.000000
0.718750 0.000000 0.000000
0.750000 0.000000 0.000000
0.781250 0.000000 0.000000
0.812500 0.000000 0.000000
0.843750 0.000000 0.000000
0.875000 0.000000 0.000000
0.906250 0.000000 0.000000
0.937500 0.000000 0.000000
0.968750 0.000000 0.000000
1.000000 0.000000 0.000000
0.000000 0.031250 0.000000
0.029785 0.029785 0.000000
0.062500 0.026855 0.000000
0.093750 0.023926 0.000000
0.125000 0.020996 0.000000
0.156250 0.018066 0.000000
0.187500 0.015137 0.000000
0.218750 0.012207 0.000000
0.250000 0.009277 0.000000
0.281250 0.006348 0.000000
0.312500 0.003418 0.000000
0.343750 0.000488 0.000000
0.375000 -0.002441 0.000000
0.406250 -0.005371 0.000000
0.437500 -0.008301 0.000000
0.468750 -0.011230 0.000000
0.500000 -0.014160 0.000000
0.531250 -0.017090 0.000000
0.562500 -0.020020 0.000000
0.593750 -0.022949 0.000000
0.625000 -0.025879 0.000000
0.656250 -0.028809 0.000000
0.687500 -0.031738 0.000000
0.718750 -0.034668 0.000000
0.750000 -0.037598 0.000000
0.781250 -0.040527 0.000000
0.812500 -0.043457 0.000000
0.843750 -0.046387 0.000000
0.875000 -0.049316 0.000000
0.906250 -0.052246 0.000000
0.937500 -0.055176 0.000000
0.968750 -0.058105 0.000000
1.000000 -0.061035 0.000000
0.000000 0.062500 0.000000
0.026855 0.062500 0.000000
0.056641 0.056641 0.000000
0.089355 0.050781 0.000000
0.125000 0.044922 0.000000
0.156250 0.039063 0.000000
0.187500 0.033203 0.000000
0.218750 0.027344 0.000000
0.250000 0.021484 0.000000
0.281250 0.015625 0.000000
0.312500 0.009766 0.000000
0.343750 0.003906 0.000000
0.375000 -0.001953 0.000000
0.406250 -0.007813 0.000000
0.437500 -0.013672 0.000000
0.468750 -0.019531 0.000000
0.500000 -0.025391 0.000000
0.531250 -0.031250 0.000000
0.562500 -0.037109 0.000000
0.593750 -0.042969 0.000000
0.625000 -0.048828 0.000000
0.656250 -0.054688 0.000000
0.687500 -0.060547 0.000000
0.718750 -0.066406 0.000000
0.750000 -0.072266 0.000000
0.781250 -0.078125 0.000000
0.812500 -0.083984 0.000000
0.843750 -0.089844 0.000000
0.875000 -0.095703 0.000000
0.906250 -0.101563 0.000000
0.937500 -0.107422 0.000000
0.968750 -0.113281 0.000000
1.000000 -0.119141 0.000000
0.000000 0.093750 0.000000
0.023926 0.093750 0.000000
0.050781 0.089355 0.000000
0.080566 0.080566 0.000000
0.113281 0.071777 0.000000
0.148926 0.062988 0.000000
0.187500 0.054199 0.000000
0.218750 0.045410 0.000000
0.250000 0.036621 0.000000
0.281250 0.027832 0.000000
0.312500 0.019043 0.000000
0.343750 0.010254 0.000000
0.375000 0.001465 0.000000
0.406250 -0.007324 0.000000
0.437500 -0.016113 0.000000
0.468750 -0.024902 0.000000
0.500000 -0.033691 0.000000
0.531250 -0.042480 0.000000
0.562500 -0.051270 0.000000
0.593750 -0.060059 0.000000
0.625000 -0.068848 0.000000
0.656250 -0.077637 0.000000
0.687500 -0.086426 0.000000
0.718750 -0.095215 0.000000
0.750000 -0.104004 0.000000
0.781250 -0.112793 0.000000
0.812500 -0.121582 0.000000
0.843750 -0.130371 0.000000
0.875000 -0.139160 0.000000
0.906250 -0.147949 0.000000
0.937500 -0.156738 0.000000
0.968750 -0.165527 0.000000
1.000000 -0.174316 0.000000
0.000000 0.125000 0.000000
0.020996 0.125000 0.000000
0.044922 0.125000 0.000000
0.071777 0.113281 0.000000
0.101563 0.101563 0.000000
0.134277 0.089844 0.000000
0.169922 0.078125 0.000000
0.208496 0.066406 0.000000
0.250000 0.054688 0.000000
0.281250 0.042969 0.000000
0.312500 0.031250 0.000000
0.343750 0.019531 0.000000
0.375000 0.007813 0.000000
0.406250 -0.003906 0.000000
0.437500 -0.015625 0.000000
0.468750 -0.027344 0.000000
0.500000 -0.039063 0.000000
0.531250 -0.050781 0.000000
0.562500 -0.062500 0.000000
0.593750 -0.074219 0.000000
0.625000 -0.085938 0.000000
0.656250 -0.097656 0.000000
0.687500 -0.109375 0.000000
0.718750 -0.121094 0.000000
0.750000 -0.132813 0.000000
0.781250 -0.144531 0.000000
0.812500 -0.156250 0.000000
0.843750 -0.167969 0.000000
0.875000 -0.179688 0.000000
0.906250 -0.191406 0.000000
0.937500 -0.203125 0.000000
0.968750 -0.214844 0.000000
1.000000 -0.226563 0.000000
0.000000 0.156250 0.000000
0.018066 0.156250 0.000000
0.039063 0.156250 0.000000
0.062988 0.148926 0.000000
0.089844 0.134277 0.000000
0.119629 0.119629 0.000000
0.152344 0.104980 0.000000
0.187988 0.090332 0.000000
0.226563 0.075684 0.000000
0.268066 0.061035 0.000000
0.312500 0.046387 0.000000
0.343750 0.031738 0.000000
0.375000 0.017090 0.000000
0.406250 0.002441 0.000000
0.437500 -0.012207 0.000000
0.468750 -0.026855 0.000000
0.500000 -0.041504 0.000000
0.531250 -0.056152 0.000000
0.562500 -0.070801 0.000000
0.593750 -0.085449 0.000000
0.625000 -0.100098 0.000000
0.656250 -0.114746 0.000000
0.687500 -0.129395 0.000000
0.718750 -0.144043 0.000000
0.750000 -0.158691 0.000000
0.781250 -0.173340 0.000000
0.812500 -0.187988 0.000000
0.843750 -0.202637 0.000000
0.875000 -0.217285 0.000000
0.906250 -0.231934 0.000000
0.937500 -0.246582 0.000000
0.968750 -0.261230 0.000000
1.000000 -0.275879 0.000000
0.000000 0.187500 0.000000
0.015137 0.187500 0.000000
0.033203 0.187500 0.000000
0.054199 0.187500 0.000000
0.078125 0.169922 0.000000
0.104980 0.152344 0.000000
0.134766 0.134766 0.000000
0.167480 0.117188 0.000000
0.203125 0.099609 0.000000
0.241699 0.082031 0.000000
0.283203 0.064453 0.000000
0.327637 0.046875 0.000000
0.375000 0.029297 0.000000
0.406250 0.011719 0.000000
0.437500 -0.005859 0.000000
0.468750 -0.023438 0.000000
0.500000 -0.041016 0.000000
0.531250 -0.058594 0.000000
0.562500 -0.076172 0.000000
0.593750 -0.093750 0.000000
0.625000 -0.111328 0.000000
0.656250 -0.128906 0.000000
0.687500 -0.146484 0.000000
0.718750 -0.164063 0.000000
0.750000 -0.181641 0.000000
0.781250 -0.199219 0.000000
0.812500 -0.216797 0.000000
0.843750 -0.234375 0.000000
0.875000 -0.251953 0.000000
0.906250 -0.269531 0.000000
0.937500 -0.287109 0.000000
0.968750 -0.304688 0.000000
1.000000 -0.322266 0.000000
0.000000 0.218750 0.000000
0.012207 0.218750 0.000000
0.027344 0.218750 0.000000
0.045410 0.218750 0.000000
0.066406 0.208496 0.000000
0.090332 0.187988 0.000000
0.117188 0.167480 0.000000
0.146973 0.146973 0.000000
0.179688 0.126465 0.000000
0.215332 0.105957 0.000000
0.253906 0.085449 0.000000
0.295410 0.064941 0.000000
0.339844 0.044434 0.000000
0.387207 0.023926 0.000000
0.437500 0.003418 0.000000
0.468750 -0.017090 0.000000
0.500000 -0.037598 0.000000
0.531250 -0.058105 0.000000
0.562500 -0.078613 0.000000
0.593750 -0.099121 0.000000
0.625000 -0.119629 0.000000
0.656250 -0.140137 0.000000
0.687500 -0.160645 0.000000
0.718750 -0.181152 0.000000
0.750000 -0.201660 0.000000
0.781250 -0.222168 0.000000
0.812500 -0.242676 0.000000
0.843750 -0.263184 0.000000
0.875000 -0.283691 0.000000
0.906250 -0.304199 0.000000
0.937500 -0.324707 0.000000
0.968750 -0.345215 0.000000
1.000000 -0.365723 0.000000
0.000000 0.250000 0.000000
0.009277 0.250000 0.000000
0.021484 0.250000 0.000000
0.036621 0.250000 0.000000
0.054688 0.250000 0.000000
0.075684 0.226563 0.000000
0.099609 0.203125 0.000000
0.126465 0.179688 0.000000
0.156250 0.156250 0.000000
0.188965 0.132813 0.000000
0.224609 0.109375 0.000000
0.263184 0.085938 0.000000
0.304688 0.062500 0.000000
0.349121 0.039063 0.000000
0.396484 0.015625 0.000000
0.446777 -0.007813 0.000000
0.500000 -0.031250 0.000000
0.531250 -0.054688 0.000000
0.562500 -0.078125 0.000000
0.593750 -0.101563 0.000000
0.625000 -0.125000 0.000000
0.656250 -0.148438 0.000000
0.687500 -0.171875 0.000000
0.718750 -0.195313 0.000000
0.750000 -0.218750 0.000000
0.781250 -0.242188 0.000000
0.812500 -0.265625 0.000000
0.843750 -0.289063 0.000000
0.875000 -0.312500 0.000000
0.906250 -0.335938 0.000000
0.937500 -0.359375 0.000000
0.968750 -0.382813 0.000000
1.000000 -0.406250 0.000000
0.000000 0.281250 0.000000
0.006348 0.281250 0.000000
0.015625 0.281250 0.000000
0.027832 0.281250 0.000000
0.042969 0.281250 0.000000
0.061035 0.268066 0.000000
0.082031 0.241699 0.000000
0.105957 0.215332 0.000000
0.132813 0.188965 0.000000
0.162598 0.162598 0.000000
0.195313 0.136230 0.000000
0.230957 0.109863 0.000000
0.269531 0.083496 0.000000
0.311035 0.057129 0.000000
0.355469 0.030762 0.000000
0.402832 0.004395 0.000000
0.453125 -0.021973 0.000000
0.506348 -0.048340 0.000000
0.562500 -0.074707 0.000000
0.593750 -0.101074 0.000000
0.625000 -0.127441 0.000000
0.656250 -0.153809 0.000000
0.687500 -0.180176 0.000000
0.718750 -0.206543 0.000000
0.750000 -0.232910 0.000000
0.781250 -0.259277 0.000000
0.812500 -0.285645 0.000000
0.843750 -0.312012 0.000000
0.875000 -0.338379 0.000000
0.906250 -0.364746 0.000000
0.937500 -0.391113 0.000000
0.968750 -0.417480 0.000000
1.000000 -0.443848 0.000000
0.000000 0.312500 0.000000
0.003418 0.312500 0.000000
0.009766 0.312500 0.000000
0.019043 0.312500 0.000000
0.031250 0.312500 0.000000
0.046387 0.312500 0.000000
0.064453 0.283203 0.000000
0.085449 0.253906 0.000000
0.109375 0.224609 0.000000
0.136230 0.195313 0.000000
0.166016 0.166016 0.000000
0.198730 0.136719 0.000000
0.234375 0.107422 0.000000
0.272949 0.078125 0.000000
0.314453 0.048828 0.000000
0.358887 0.019531 0.000000
0.406250 -0.009766 0.000000
0.456543 -0.039063 0.000000
0.509766 -0.068359 0.000000
0.565918 -0.097656 0.000000
0.625000 -0.126953 0.000000
0.656250 -0.156250 0.000000
0.687500 -0.185547 0.000000
0.718750 -0.214844 0.000000
0.750000 -0.244141 0.000000
0.781250 -0.273438 0.000000
0.812500 -0.302734 0.000000
0.843750 -0.332031 0.000000
0.875000 -0.361328 0.000000
0.906250 -0.390625 0.000000
0.937500 -0.419922 0.000000
0.968750 -0.449219 0.000000
1.000000 -0.478516 0.000000
0.000000 0.343750 0.000000
0.000488 0.343750 0.000000
0.003906 0.343750 0.000000
0.010254 0.343750 0.000000
0.019531 0.343750 0.000000
0.031738 0.343750 0.000000
0.046875 0.327637 0.000000
0.064941 0.295410 0.000000
0.085938 0.263184 0.000000
0.109863 0.230957 0.000000
0.136719 0.198730 0.000000
0.166504 0.166504 0.000000
0.199219 0.134277 0.000000
0.234863 0.102051 0.000000
0.273438 0.069824 0.000000
0.314941 0.037598 0.000000
0.359375 0.005371 0.000000
0.406738 -0.026855 0.000000
0.457031 -0.059082 0.000000
0.510254 -0.091309 0.000000
0.566406 -0.123535 0.000000
0.625488 -0.155762 0.000000
0.687500 -0.187988 0.000000
0.718750 -0.220215 0.000000
0.750000 -0.252441 0.000000
0.781250 -0.284668 0.000000
0.812500 -0.316895 0.000000
0.843750 -0.349121 0.000000
0.875000 -0.381348 0.000000
0.906250 -0.413574 0.000000
0.937500 -0.445801 0.000000
0.968750 -0.478027 0.000000
1.000000 -0.510254 0.000000
0.000000 0.375000 0.000000
-0.002441 0.375000 0.000000
-0.001953 0.375000 0.000000
0.001465 0.375000 0.000000
0.007813 0.375000 0.000000
0.017090 0.375000 0.000000
0.029297 0.375000 0.000000
0.044434 0.339844 0.000000
0.062500 0.304688 0.000000
0.083496 0.269531 0.000000
0.107422 0.234375 0.000000
0.134277 0.199219 0.000000
0.164063 0.164063 0.000000
0.196777 0.128906 0.000000
0.232422 0.093750 0.000000
0.270996 0.058594 0.000000
0.312500 0.023438 0.000000
0.356934 -0.011719 0.000000
0.404297 -0.046875 0.000000
0.454590 -0.082031 0.000000
0.507813 -0.117188 0.000000
0.563965 -0.152344 0.000000
0.623047 -0.187500 0.000000
0.685059 -0.222656 0.000000
0.750000 -0.257813 0.000000
0.781250 -0.292969 0.000000
0.812500 -0.328125 0.000000
0.843750 -0.363281 0.000000
0.875000 -0.398438 0.000000
0.906250 -0.433594 0.000000
0.937500 -0.468750 0.000000
0.968750 -0.503906 0.000000
1.000000 -0.539063 0.000000
0.000000 0.406250 0.000000
-0.005371 0.406250 0.000000
-0.007813 0.406250 0.000000
-0.007324 0.406250 0.000000
-0.003906 0.406250 0.000000
0.002441 0.406250 0.000000
0.011719 0.406250 0.000000
0.023926 0.387207 0.000000
0.039063 0.349121 0.000000
0.057129 0.311035 0.000000
0.078125 0.272949 0.000000
0.102051 0.234863 0.000000
0.128906 0.196777 0.000000
0.158691 0.158691 0.000000
0.191406 0.120605 0.000000
0.227051 0.082520 0.000000
0.265625 0.044434 0.000000
0.307129 0.006348 0.000000
0.351563 -0.031738 0.000000
0.398926 -0.069824 0.000000
0.449219 -0.107910 0.000000
0.502441 -0.145996 0.000000
0.558594 -0.184082 0.000000
0.617676 -0.222168 0.000000
0.679688 -0.260254 0.000000
0.744629 -0.298340 0.000000
0.812500 -0.336426 0.000000
0.843750 -0.374512 0.000000
0.875000 -0.412598 0.000000
0.906250 -0.450684 0.000000
0.937500 -0.488770 0.000000
0.968750 -0.526855 0.000000
1.000000 -0.564941 0.000000
0.000000 0.437500 0.000000
-0.008301 0.437500 0.000000
-0.013672 0.437500 0.000000
-0.016113 0.437500 0.000000
-0.015625 0.437500 0.000000
-0.012207 0.437500 0.000000
-0.005859 0.437500 0.000000
0.003418 0.437500 0.000000
0.015625 0.396484 0.000000
0.030762 0.355469 0.000000
0.048828 0.314453 0.000000
0.069824 0.273438 0.000000
0.093750 0.232422 0.000000
0.120605 0.191406 0.000000
0.150391 0.150391 0.000000
0.183105 0.109375 0.000000
0.218750 0.068359 0.000000
0.257324 0.027344 0.000000
0.298828 -0.013672 0.000000
0.343262 -0.054688 0.000000
0.390625 -0.095703 0.000000
0.440918 -0.136719 0.000000
0.494141 -0.177734 0.000000
0.550293 -0.218750 0.000000
0.609375 -0.259766 0.000000
0.671387 -0.300781 0.000000
0.736328 -0.341797 0.000000
0.804199 -0.382813 0.000000
0.875000 -0.423828 0.000000
0.906250 -0.464844 0.000000
0.937500 -0.505859 0.000000
0.968750 -0.546875 0.000000
1.000000 -0.587891 0.000000
0.000000 0.468750 0.000000
-0.011230 0.468750 0.000000
-0.019531 0.468750 0.000000
-0.024902 0.468750 0.000000
-0.027344 0.468750 0.000000
-0.026855 0.468750 0.000000
-0.023438 0.468750 0.000000
-0.017090 0.468750 0.000000
-0.007813 0.446777 0.000000
0.004395 0.402832 0.000000
0.019531 0.358887 0.000000
0.037598 0.314941 0.000000
0.058594 0.270996 0.000000
0.082520 0.227051 0.000000
0.109375 0.183105 0.000000
0.139160 0.139160 0.000000
0.171875 0.095215 0.000000
0.207520 0.051270 0.000000
0.246094 0.007324 0.000000
0.287598 -0.036621 0.000000
0.332031 -0.080566 0.000000
0.379395 -0.124512 0.000000
0.429688 -0.168457 0.000000
0.482910 -0.212402 0.000000
0.539063 -0.256348 0.000000
0.598145 -0.300293 0.000000
0.660156 -0.344238 0.000000
0.725098 -0.388184 0.000000
0.792969 -0.432129 0.000000
0.863770 -0.476074 0.000000
0.937500 -0.520020 0.000000
0.968750 -0.563965 0.000000
1.000000 -0.607910 0.000000
0.000000 0.500000 0.000000
-0.014160 0.500000 0.000000
-0.025391 0.500000 0.000000
-0.033691 0.500000 0.000000
-0.039063 0.500000 0.000000
-0.041504 0.500000 0.000000
-0.041016 0.500000 0.000000
-0.037598 0.500000 0.000000
-0.031250 0.500000 0.000000
-0.021973 0.453125 0.000000
-0.009766 0.406250 0.000000
0.005371 0.359375 0.000000
0.023438 0.312500 0.000000
0.044434 0.265625 0.000000
0.068359 0.218750 0.000000
0.095215 0.171875 0.000000
0.125000 0.125000 0.000000
0.157715 0.078125 0.000000
0.193359 0.031250 0.000000
0.231934 -0.015625 0.000000
0.273438 -0.062500 0.000000
0.317871 -0.109375 0.000000
0.365234 -0.156250 0.000000
0.415527 -0.203125 0.000000
0.468750 -0.250000 0.000000
0.524902 -0.296875 0.000000
0.583984 -0.343750 0.000000
0.645996 -0.390625 0.000000
0.710938 -0.437500 0.000000
0.778809 -0.484375 0.000000
0.849609 -0.531250 0.000000
0.923340 -0.578125 0.000000
1.000000 -0.625000 0.000000
0.000000 0.531250 0.000000
-0.017090 0.531250 0.000000
-0.031250 0.531250 0.000000
-0.042480 0.531250 0.000000
-0.050781 0.531250 0.000000
-0.056152 0.531250 0.000000
-0.058594 0.531250 0.000000
-0.058105 0.531250 0.000000
-0.054688 0.531250 0.000000
-0.048340 0.506348 0.000000
-0.039063 0.456543 0.000000
-0.026855 0.406738 0.000000
-0.011719 0.356934 0.000000
0.006348 0.307129 0.000000
0.027344 0.257324 0.000000
0.051270 0.207520 0.000000
0.078125 0.157715 0.000000
0.107910 0.107910 0.000000
0.140625 0.058105 0.000000
0.176270 0.008301 0.000000
0.214844 -0.041504 0.000000
0.256348 -0.091309 0.000000
0.300781 -0.141113 0.000000
0.348145 -0.190918 0.000000
0.398438 -0.240723 0.000000
0.451660 -0.290527 0.000000
0.507813 -0.340332 0.000000
0.566895 -0.390137 0.000000
0.628906 -0.439941 0.000000
0.693848 -0.489746 0.000000
0.761719 -0.539551 0.000000
0.832520 -0.589355 0.000000
0.906250 -0.639160 0.000000
0.000000 0.562500 0.000000
-0.020020 0.562500 0.000000
-0.037109 0.562500 0.000000
-0.051270 0.562500 0.000000
-0.062500 0.562500 0.000000
-0.070801 0.562500 0.000000
-0.076172 0.562500 0.000000
-0.078613 0.562500 0.000000
-0.078125 0.562500 0.000000
-0.074707 0.562500 0.000000
-0.068359 0.509766 0.000000
-0.059082 0.457031 0.000000
-0.046875 0.404297 0.000000
-0.031738 0.351563 0.000000
-0.013672 0.298828 0.000000
0.007324 0.246094 0.000000
0.031250 0.193359 0.000000
0.058105 0.140625 0.000000
0.087891 0.087891 0.000000
0.120605 0.035156 0.000000
0.156250 -0.017578 0.000000
0.194824 -0.070313 0.000000
0.236328 -0.123047 0.000000
0.280762 -0.175781 0.000000
0.328125 -0.228516 0.000000
0.378418 -0.281250 0.000000
0.431641 -0.333984 0.000000
0.487793 -0.386719 0.000000
0.546875 -0.439453 0.000000
0.608887 -0.492188 0.000000
0.673828 -0.544922 0.000000
0.741699 -0.597656 0.000000
0.812500 -0.650391 0.000000
0.000000 0.593750 0.000000
-0.022949 0.593750 0.000000
-0.042969 0.593750 0.000000
-0.060059 0.593750 0.000000
-0.074219 0.593750 0.000000
-0.085449 0.593750 0.000000
-0.093750 0.593750 0.000000
-0.099121 0.593750 0.000000
-0.101563 0.593750 0.000000
-0.101074 0.593750 0.000000
-0.097656 0.565918 0.000000
-0.091309 0.510254 0.000000
-0.082031 0.454590 0.000000
-0.069824 0.398926 0.000000
-0.054688 0.343262 0.000000
-0.036621 0.287598 0.000000
-0.015625 0.231934 0.000000
0.008301 0.176270 0.000000
0.035156 0.120605 0.000000
0.064941 0.064941 0.000000
0.097656 0.009277 0.000000
0.133301 -0.046387 0.000000
0.171875 -0.102051 0.000000
0.213379 -0.157715 0.000000
0.257813 -0.213379 0.000000
0.305176 -0.269043 0.000000
0.355469 -0.324707 0.000000
0.408691 -0.380371 0.000000
0.464844 -0.436035 0.000000
0.523926 -0.491699 0.000000
0.585938 -0.547363 0.000000
0.650879 -0.603027 0.000000
0.718750 -0.658691 0.000000
0.000000 0.625000 0.000000
-0.025879 0.625000 0.000000
-0.048828 0.625000 0.000000
-0.068848 0.625000 0.000000
-0.085938 0.625000 0.000000
-0.100098 0.625000 0.000000
-0.111328 0.625000 0.000000
-0.119629 0.625000 0.000000
-0.125000 0.625000 0.000000
-0.127441 0.625000 0.000000
-0.126953 0.625000 0.000000
-0.123535 0.566406 0.000000
-0.117188 0.507813 0.000000
-0.107910 0.449219 0.000000
-0.095703 0.390625 0.000000
-0.080566 0.332031 0.000000
-0.062500 0.273438 0.000000
-0.041504 0.214844 0.000000
-0.017578 0.156250 0.000000
0.009277 0.097656 0.000000
0.039063 0.039063 0.000000
0.071777 -0.019531 0.000000
0.107422 -0.078125 0.000000
0.145996 -0.136719 0.000000
0.187500 -0.195313 0.000000
0.231934 -0.253906 0.000000
0.279297 -0.312500 0.000000
0.329590 -0.371094 0.000000
0.382813 -0.429688 0.000000
0.438965 -0.488281 0.000000
0.498047 -0.546875 0.000000
0.560059 -0.605469 0.000000
0.625000 -0.664063 0.000000
0.000000 0.656250 0.000000
-0.028809 0.656250 0.000000
-0.054688 0.656250 0.000000
-0.077637 0.656250 0.000000
-0.097656 0.656250 0.000000
-0.114746 0.656250 0.000000
-0.128906 0.656250 0.000000
-0.140137 0.656250 0.000000
-0.148438 0.656250 0.000000
-0.153809 0.656250 0.000000
-0.156250 0.656250 0.000000
-0.155762 0.625488 0.000000
-0.152344 0.563965 0.000000
-0.145996 0.502441 0.000000
-0.136719 0.440918 0.000000
-0.124512 0.379395 0.000000
-0.109375 0.317871 0.000000
-0.091309 0.256348 0.000000
-0.070313 0.194824 0.000000
-0.046387 0.133301 0.000000
-0.019531 0.071777 0.000000
0.010254 0.010254 0.000000
0.042969 -0.051270 0.000000
0.078613 -0.112793 0.000000
0.117188 -0.174316 0.000000
0.158691 -0.235840 0.000000
0.203125 -0.297363 0.000000
0.250488 -0.358887 0.000000
0.300781 -0.420410 0.000000
0.354004 -0.481934 0.000000
0.410156 -0.543457 0.000000
0.469238 -0.604980 0.000000
0.531250 -0.666504 0.000000
0.000000 0.687500 0.000000
-0.031738 0.687500 0.000000
-0.060547 0.687500 0.000000
-0.086426 0.687500 0.000000
-0.109375 0.687500 0.000000
-0.129395 0.687500 0.000000
-0.146484 0.687500 0.000000
-0.160645 0.687500 0.000000
-0.171875 0.687500 0.000000
-0.180176 0.687500 0.000000
-0.185547 0.687500 0.000000
-0.187988 0.687500 0.000000
-0.187500 0.623047 0.000000
-0.184082 0.558594 0.000000
-0.177734 0.494141 0.000000
-0.168457 0.429688 0.000000
-0.156250 0.365234 0.000000
-0.141113 0.300781 0.000000
-0.123047 0.236328 0.000000
-0.102051 0.171875 0.000000
-0.078125 0.107422 0.000000
-0.051270 0.042969 0.000000
-0.021484 -0.021484 0.000000
0.011230 -0.085938 0.000000
0.046875 -0.150391 0.000000
0.085449 -0.214844 0.000000
0.126953 -0.279297 0.000000
0.171387 -0.343750 0.000000
0.218750 -0.408203 0.000000
0.269043 -0.472656 0.000000
0.322266 -0.537109 0.000000
0.378418 -0.601563 0.000000
0.437500 -0.666016 0.000000
0.000000 0.718750 0.000000
-0.034668 0.718750 0.000000
-0.066406 0.718750 0.000000
-0.095215 0.718750 0.000000
-0.121094 0.718750 0.000000
-0.144043 0.718750 0.000000
-0.164063 0.718750 0.000000
-0.181152 0.718750 0.000000
-0.195313 0.718750 0.000000
-0.206543 0.718750 0.000000
-0.214844 0.718750 0.000000
-0.220215 0.718750 0.000000
-0.222656 0.685059 0.000000
-0.222168 0.617676 0.000000
-0.218750 0.550293 0.000000
-0.212402 0.482910 0.000000
-0.203125 0.415527 0.000000
-0.190918 0.348145 0.000000
-0.175781 0.280762 0.000000
-0.157715 0.213379 0.000000
-0.136719 0.145996 0.000000
-0.112793 0.078613 0.000000
-0.085938 0.011230 0.000000
-0.056152 -0.056152 0.000000
-0.023438 -0.123535 0.000000
0.012207 -0.190918 0.000000
0.050781 -0.258301 0.000000
0.092285 -0.325684 0.000000
0.136719 -0.393066 0.000000
0.184082 -0.460449 0.000000
0.234375 -0.527832 0.000000
0.287598 -0.595215 0.000000
0.343750 -0.662598 0.000000
0.000000 0.750000 0.000000
-0.037598 0.750000 0.000000
-0.072266 0.750000 0.000000
-0.104004 0.750000 0.000000
-0.132813 0.750000 0.000000
-0.158691 0.750000 0.000000
-0.181641 0.750000 0.000000
-0.201660 0.750000 0.000000
-0.218750 0.750000 0.000000
-0.232910 0.750000 0.000000
-0.244141 0.750000 0.000000
-0.252441 0.750000 0.000000
-0.257813 0.750000 0.000000
-0.260254 0.679688 0.000000
-0.259766 0.609375 0.000000
-0.256348 0.539063 0.000000
-0.250000 0.468750 0.000000
-0.240723 0.398438 0.000000
-0.228516 0.328125 0.000000
-0.213379 0.257813 0.000000
-0.195313 0.187500 0.000000
-0.174316 0.117188 0.000000
-0.150391 0.046875 0.000000
-0.123535 -0.023438 0.000000
-0.093750 -0.093750 0.000000
-0.061035 -0.164063 0.000000
-0.025391 -0.234375 0.000000
0.013184 -0.304688 0.000000
0.054688 -0.375000 0.000000
0.099121 -0.445313 0.000000
0.146484 -0.515625 0.000000
0.196777 -0.585938 0.000000
0.250000 -0.656250 0.000000
0.000000 0.781250 0.000000
-0.040527 0.781250 0.000000
-0.078125 0.781250 0.000000
-0.112793 0.781250 0.000000
-0.144531 0.781250 0.000000
-0.173340 0.781250 0.000000
-0.199219 0.781250 0.000000
-0.222168 0.781250 0.000000
-0.242188 0.781250 0.000000
-0.259277 0.781250 0.000000
-0.273438 0.781250 0.000000
-0.284668 0.781250 0.000000
-0.292969 0.781250 0.000000
-0.298340 0.744629 0.000000
-0.300781 0.671387 0.000000
-0.300293 0.598145 0.000000
-0.296875 0.524902 0.000000
-0.290527 0.451660 0.000000
-0.281250 0.378418 0.000000
-0.269043 0.305176 0.000000
-0.253906 0.231934 0.000000
-0.235840 0.158691 0.000000
-0.214844 0.085449 0.000000
-0.190918 0.012207 0.000000
-0.164063 -0.061035 0.000000
-0.134277 -0.134277 0.000000
-0.101563 -0.207520 0.000000
-0.065918 -0.280762 0.000000
-0.027344 -0.354004 0.000000
0.014160 -0.427246 0.000000
0.058594 -0.500488 0.000000
0.105957 -0.573730 0.000000
0.156250 -0.646973 0.000000
0.000000 0.812500 0.000000
-0.043457 0.812500 0.000000
-0.083984 0.812500 0.000000
-0.121582 0.812500 0.000000
-0.156250 0.812500 0.000000
-0.187988 0.812500 0.000000
-0.216797 0.812500 0.000000
