app/src/main/assets/Strip3.cube
TITLE "Generated by RED"
LUT_3D_SIZE 5
0.000000 0.000000 0.000000
0.250000 0.000000 0.000000
0.500000 0.000000 0.000000
0.750000 0.000000 0.000000
1.000000 0.000000 0.000000
0.000000 0.250000 0.000000
0.156250 0.156250 0.000000
0.500000 -0.031250 0.000000
0.750000 -0.218750 0.000000
1.000000 -0.406250 0.000000
0.000000 0.500000 0.000000
-0.031250 0.500000 0.000000
0.125000 0.125000 0.000000
0.468750 -0.250000 0.000000
1.000000 -0.625000 0.000000
0.000000 0.750000 0.000000
-0.218750 0.750000 0.000000
-0.250000 0.468750 0.000000
-0.093750 -0.093750 0.000000
0.250000 -0.656250 0.000000
0.000000 1.000000 0.000000
-0.406250 1.000000 0.000000
-0.625000 1.000000 0.000000
-0.656250 0.250000 0.000000
-0.500000 -0.500000 0.000000
0.000000 0.000000 0.250000
0.156250 0.000000 0.156250
0.500000 0.000000 -0.031250
0.750000 0.000000 -0.218750
1.000000 0.000000 -0.406250
0.000000 0.156250 0.156250
0.250000 0.250000 0.250000
0.500000 0.062500 0.062500
0.750000 -0.125000 -0.125000
1.000000 -0.312500 -0.312500
0.000000 0.500000 -0.031250
0.062500 0.500000 0.062500
0.312500 0.312500 0.074219
0.750000 -0.062500 -0.031250
1.000000 -0.437500 -0.218750
0.000000 0.750000 -0.218750
-0.125000 0.750000 -0.125000
-0.062500 0.750000 -0.031250
0.187500 0.187500 -0.078125
0.625000 -0.375000 -0.171875
0.000000 1.000000 -0.406250
-0.312500 1.000000 -0.312500
-0.437500 1.000000 -0.218750
-0.375000 0.625000 -0.171875
-0.125000 -0.125000 -0.207031
0.000000 0.000000 0.500000
-0.031250 0.000000 0.500000
0.125000 0.000000 0.125000
0.468750 0.000000 -0.250000
1.000000 0.000000 -0.625000
0.000000 -0.031250 0.500000
0.062500 0.062500 0.500000
0.312500 0.074219 0.312500
0.750000 -0.031250 -0.062500
1.000000 -0.218750 -0.437500
0.000000 0.125000 0.125000
0.074219 0.312500 0.312500
0.500000 0.500000 0.500000
0.750000 0.125000 0.125000
1.000000 -0.250000 -0.250000
0.000000 0.468750 -0.250000
-0.031250 0.750000 -0.062500
0.125000 0.750000 0.125000
0.468750 0.468750 0.148438
1.000000 -0.093750 -0.062500
0.000000 1.000000 -0.625000
-0.218750 1.000000 -0.437500
-0.250000 1.000000 -0.250000
-0.093750 1.000000 -0.062500
0.250000 0.250000 -0.156250
0.000000 0.000000 0.750000
-0.218750 0.000000 0.750000
-0.250000 0.000000 0.468750
-0.093750 0.000000 -0.093750
0.250000 0.000000 -0.656250
0.000000 -0.218750 0.750000
-0.125000 -0.125000 0.750000
-0.062500 -0.031250 0.750000
0.187500 -0.078125 0.187500
0.625000 -0.171875 -0.375000
0.000000 -0.250000 0.468750
-0.031250 -0.062500 0.750000
0.125000 0.125000 0.750000
0.468750 0.148438 0.468750
1.000000 -0.062500 -0.093750
0.000000 -0.093750 -0.093750
-0.078125 0.187500 0.187500
0.148438 0.468750 0.468750
0.750000 0.750000 0.750000
1.000000 0.187500 0.187500
0.000000 0.250000 -0.656250
-0.171875 0.625000 -0.375000
-0.062500 1.000000 -0.093750
0.187500 1.000000 0.187500
0.625000 0.625000 0.222656
0.000000 0.000000 1.000000
-0.406250 0.000000 1.000000
-0.625000 0.000000 1.000000
-0.656250 0.000000 0.250000
-0.500000 0.000000 -0.500000
0.000000 -0.406250 1.000000
-0.312500 -0.312500 1.000000
-0.437500 -0.218750 1.000000
-0.375000 -0.171875 0.625000
-0.125000 -0.207031 -0.125000
0.000000 -0.625000 1.000000
-0.218750 -0.437500 1.000000
-0.250000 -0.250000 1.000000
-0.093750 -0.062500 1.000000
0.250000 -0.156250 0.250000
0.000000 -0.656250 0.250000
-0.171875 -0.375000 0.625000
-0.062500 -0.093750 1.000000
0.187500 0.187500 1.000000
0.625000 0.222656 0.625000
0.000000 -0.500000 -0.500000
-0.207031 -0.125000 -0.125000
-0.156250 0.250000 0.250000
0.222656 0.625000 0.625000
1.000000 1.000000 1.000000
